%
(3a-efis-engraving)
(T4  D=0.3 CR=0 - ZMIN=-0.1 - flat end mill)
G90 G94
G17
G21
G28 G91 Z0
G90

(2D Pocket2)
M9
T4 M6
S24000 M3
G54
M8
G0 X-58.448 Y3.677
Z2.3
Z1
G1 Z0.5 F1000
G3 X-58.7 Y3.805 Z0.422 I-0.126 J0.064 F100
X-58.448 Y3.677 Z0.343 I0.126 J-0.064
X-58.7 Y3.805 Z0.265 I-0.126 J0.064
X-58.448 Y3.677 Z0.186 I0.126 J-0.064
X-58.7 Y3.805 Z0.108 I-0.126 J0.064
X-58.448 Y3.677 Z0.029 I0.126 J-0.064
X-58.7 Y3.805 Z-0.049 I-0.126 J0.064
X-58.576 Y3.6 Z-0.1 I0.126 J-0.064
X-58.572 Y3.856 I0.002 J0.128
G1 X-58.659 Y3.858
X-58.713 Y3.773
X-58.7 Y3.673
X-58.628 Y3.605
X-58.528 Y3.602
X-58.45 Y3.669
X-58.434 Y3.767
X-58.485 Y3.855
X-58.572 Y3.856
X-58.573 Y3.799 Z-0.094 F1000
G0 Z2.3
X-58.572 Y2.887
Z1
G1 Z0.5 F1000
X-58.576 F100
X-58.577
G3 X-58.683 Y2.779 Z0.492 I0.002 J-0.108
G1 Y0.872 Z0.408
G3 X-58.465 Z0.392 I0.109
G1 Y2.779 Z0.308
G3 X-58.572 Y2.887 Z0.3 I-0.109
G1 X-58.576
X-58.577
G3 X-58.683 Y2.779 Z0.292 I0.002 J-0.108
G1 Y0.872 Z0.208
G3 X-58.465 Z0.192 I0.109
G1 Y2.779 Z0.108
G3 X-58.572 Y2.887 Z0.1 I-0.109
G1 X-58.576
X-58.577
G3 X-58.683 Y2.779 Z0.092 I0.002 J-0.108
G1 Y0.872 Z0.008
G3 X-58.465 Z-0.008 I0.109
G1 Y2.779 Z-0.092
G3 X-58.572 Y2.887 Z-0.1 I-0.109
X-58.664 Y2.8 I-0.001 J-0.09
G1 Y2.782
G3 X-58.484 Y2.775 I0.09 J-0.003
X-58.572 Y2.869 I-0.09 J0.003
G1 X-58.636 Y2.87
X-58.683 Y2.782
Y0.871
X-58.643 Y0.783
X-58.546 Y0.764
X-58.472 Y0.827
X-58.465 Y2.782
X-58.508 Y2.868
X-58.572 Y2.869
X-58.573 Y2.812 Z-0.094 F1000
G0 Z2.3
X-57.369 Y2.432
Z1
G1 Z0.5 F1000
G3 X-57.28 Y2.703 Z0.421 I0.044 J0.135 F100
X-57.369 Y2.432 Z0.342 I-0.044 J-0.135
X-57.28 Y2.703 Z0.263 I0.044 J0.135
X-57.369 Y2.432 Z0.184 I-0.044 J-0.135
X-57.28 Y2.703 Z0.105 I0.044 J0.135
X-57.369 Y2.432 Z0.026 I-0.044 J-0.135
X-57.28 Y2.703 Z-0.053 I0.044 J0.135
X-57.467 Y2.567 Z-0.1 I-0.044 J-0.135
X-57.294 I0.086
X-57.355 I-0.03
X-57.294 I0.03
G1 X-57.228 Y2.648
G3 X-57.233 Y2.707 I-0.027 J0.027
G2 X-57.292 Y2.795 I0.087 J0.122
G1 X-57.358 Y2.86
X-57.396
X-57.409 Y2.859
X-57.421 Y2.858
X-57.432 Y2.856
X-57.49 Y2.787
X-57.491 Y2.774
X-57.492 Y2.76
Y2.741
Y0.899
X-57.447 Y0.812
X-57.29 Y0.847
X-57.278 Y2.301
G2 X-57.253 Y2.384 I0.15
G1 X-57.24 Y2.404
X-57.223 Y2.428
X-57.205 Y2.451
X-57.186 Y2.473
X-57.166 Y2.494
X-57.146 Y2.514
X-57.124 Y2.533
X-57.102 Y2.552
X-57.078 Y2.569
X-57.055 Y2.585
X-57.03 Y2.6
X-57.004 Y2.614
X-56.978 Y2.627
X-56.952 Y2.638
X-56.925 Y2.649
X-56.897 Y2.658
X-56.868 Y2.666
X-56.839 Y2.673
X-56.81 Y2.679
X-56.781 Y2.684
X-56.75 Y2.687
X-56.72 Y2.69
X-56.689 Y2.691
X-56.658 Y2.692
X-56.621 Y2.691
X-56.583 Y2.689
X-56.546 Y2.684
X-56.51 Y2.678
X-56.475 Y2.669
G2 X-56.465 Y2.666 I-0.037 J-0.145
G1 X-56.441 Y2.658
G2 X-56.431 Y2.655 I-0.047 J-0.143
G1 X-56.408 Y2.645
G2 X-56.397 Y2.64 I-0.056 J-0.139
G1 X-56.375 Y2.629
G2 X-56.365 Y2.624 I-0.067 J-0.134
G1 X-56.344 Y2.611
G2 X-56.334 Y2.605 I-0.077 J-0.129
G1 X-56.314 Y2.591
G2 X-56.305 Y2.583 I-0.088 J-0.122
G1 X-56.287 Y2.568
G2 X-56.277 Y2.559 I-0.097 J-0.114
G1 X-56.261 Y2.542
G2 X-56.253 Y2.533 I-0.107 J-0.105
G1 X-56.237 Y2.515
G2 X-56.23 Y2.505 I-0.115 J-0.097
G1 X-56.216 Y2.485
G2 X-56.209 Y2.476 I-0.122 J-0.087
G1 X-56.197 Y2.454
G2 X-56.191 Y2.444 I-0.129 J-0.077
G1 X-56.18 Y2.422
G2 X-56.175 Y2.412 I-0.134 J-0.067
G1 X-56.165 Y2.388
X-56.153 Y2.353
X-56.143 Y2.317
X-56.135 Y2.28
X-56.129 Y2.243
X-56.125 Y2.204
X-56.122 Y2.164
X-56.121 Y2.124
Y0.899
X-56.077 Y0.812
X-55.979 Y0.799
X-55.911 Y0.869
X-55.907 Y2.17
X-55.909 Y2.234
X-55.912 Y2.293
X-55.918 Y2.348
X-55.926 Y2.4
X-55.936 Y2.449
X-55.949 Y2.494
X-55.963 Y2.536
X-55.979 Y2.575
X-55.997 Y2.61
X-56.016 Y2.642
X-56.037 Y2.672
X-56.06 Y2.699
X-56.085 Y2.723
X-56.111 Y2.746
X-56.14 Y2.766
X-56.171 Y2.785
X-56.204 Y2.801
X-56.241 Y2.816
X-56.28 Y2.829
X-56.323 Y2.84
X-56.369 Y2.848
X-56.418 Y2.855
X-56.47 Y2.858
X-56.527 Y2.86
X-56.56 Y2.859
X-56.593 Y2.858
X-56.626 Y2.857
X-56.657 Y2.855
X-56.687 Y2.853
X-56.715 Y2.849
X-56.743 Y2.846
X-56.769 Y2.842
X-56.795 Y2.837
X-56.819 Y2.832
X-56.842 Y2.826
X-56.864 Y2.82
X-56.884 Y2.814
X-56.904 Y2.807
X-56.922 Y2.8
X-56.939 Y2.793
X-56.955 Y2.785
X-56.97 Y2.777
X-56.983 Y2.769
X-56.996 Y2.761
X-57.008 Y2.752
X-57.018 Y2.744
X-57.028 Y2.735
X-57.04 Y2.723
G2 X-57.233 Y2.707 I-0.106 J0.106
G1 X-57.266 Y2.66 Z-0.094 F1000
G0 Z2.3
X-51.508 Y2.342
Z1
G1 Z0.5 F1000
G3 X-51.778 Y2.251 Z0.421 I-0.135 J-0.046 F100
X-51.508 Y2.342 Z0.342 I0.135 J0.046
X-51.778 Y2.251 Z0.263 I-0.135 J-0.046
X-51.508 Y2.342 Z0.184 I0.135 J0.046
X-51.778 Y2.251 Z0.105 I-0.135 J-0.046
X-51.508 Y2.342 Z0.026 I0.135 J0.046
X-51.778 Y2.251 Z-0.053 I-0.135 J-0.046
X-51.558 Y2.183 Z-0.1 I0.135 J0.046
X-51.541 Y2.301 I-0.051 J0.068
X-51.66 Y2.318 I-0.068 J-0.051
X-51.627 Y2.275 I0.016 J-0.022
X-51.66 Y2.318 I-0.016 J0.022
G1 X-51.642 Y2.3 Z-0.097 F1000
Z0.5
X-53.448 Y2.254 F100
G3 X-53.72 Y2.34 Z0.421 I-0.136 J0.043
X-53.448 Y2.254 Z0.342 I0.136 J-0.043
X-53.72 Y2.34 Z0.263 I-0.136 J0.043
X-53.448 Y2.254 Z0.184 I0.136 J-0.043
X-53.72 Y2.34 Z0.105 I-0.136 J0.043
X-53.448 Y2.254 Z0.026 I0.136 J-0.043
X-53.72 Y2.34 Z-0.053 I-0.136 J0.043
X-53.582 Y2.154 Z-0.1 I0.136 J-0.043
X-53.498 Y2.24 I-0.001 J0.085
X-53.584 Y2.324 I-0.085 J-0.001
Y2.269 J-0.027
Y2.324 J0.027
G2 X-53.62 Y2.516 I-0.001 J0.099
G3 X-53.509 Y2.676 I-0.06 J0.161
G1 Y3.79
X-53.553 Y3.883
X-53.649 Y3.905
X-53.737 Y3.858
X-53.76 Y0.862
X-53.717 Y0.774
X-53.618 Y0.747
X-53.532 Y0.79
X-53.509 Y2.06
G2 X-53.359 Y2.21 I0.15
G1 X-51.868
G2 X-51.718 Y2.06 J-0.15
G1 Y0.862
X-51.682 Y0.773
X-51.585 Y0.747
X-51.487 Y0.772
X-51.467 Y3.786
X-51.504 Y3.878
X-51.604 Y3.906
X-51.693 Y3.861
X-51.718 Y2.533
G2 X-51.868 Y2.383 I-0.15
G1 X-53.359
G2 X-53.509 Y2.533 J0.15
G1 Y2.676
X-53.566 Z-0.094 F1000
G0 Z2.3
X-49.419 Y0.912
Z1
G1 Z0.5 F1000
G3 X-49.33 Y1.183 Z0.421 I0.044 J0.135 F100
X-49.419 Y0.912 Z0.342 I-0.044 J-0.135
X-49.33 Y1.183 Z0.263 I0.044 J0.135
X-49.419 Y0.912 Z0.184 I-0.044 J-0.135
X-49.33 Y1.183 Z0.105 I0.044 J0.135
X-49.419 Y0.912 Z0.026 I-0.044 J-0.135
X-49.33 Y1.183 Z-0.053 I0.044 J0.135
X-49.517 Y1.048 Z-0.1 I-0.044 J-0.135
X-49.345 I0.086
X-49.404 I-0.029
X-49.345 I0.029
G1 X-49.375 Z-0.097 F1000
G0 Z1.1
X-49.491 Y2.369
Z1
G1 Z0.5 F1000
G3 X-49.411 Y2.643 Z0.421 I0.04 J0.137 F100
X-49.491 Y2.369 Z0.342 I-0.04 J-0.137
X-49.411 Y2.643 Z0.263 I0.04 J0.137
X-49.491 Y2.369 Z0.184 I-0.04 J-0.137
X-49.411 Y2.643 Z0.105 I0.04 J0.137
X-49.491 Y2.369 Z0.026 I-0.04 J-0.137
X-49.411 Y2.643 Z-0.053 I0.04 J0.137
X-49.593 Y2.501 Z-0.1 I-0.04 J-0.137
X-49.363 Y2.509 I0.115 J0.004
X-49.43 Y2.507 I-0.033 J-0.001
X-49.363 Y2.509 I0.033 J0.001
G2 X-49.285 Y2.635 I0.132 J0.005
G3 X-49.233 Y2.774 I-0.042 J0.095
G1 X-49.255 Y2.82
X-49.332 Y2.836
X-49.424 Y2.764
X-49.428 Y2.751
G2 X-49.666 Y2.675 I-0.144 J0.041
G1 X-49.684 Y2.69
X-49.701 Y2.702
X-49.718 Y2.715
X-49.735 Y2.726
X-49.752 Y2.737
X-49.769 Y2.747
X-49.787 Y2.757
X-49.804 Y2.766
X-49.822 Y2.775
X-49.84 Y2.783
X-49.857 Y2.79
X-49.876 Y2.797
X-49.894 Y2.803
X-49.912 Y2.809
X-49.931 Y2.814
X-49.95 Y2.819
X-49.969 Y2.823
X-49.988 Y2.826
X-50.008 Y2.83
X-50.027 Y2.832
X-50.047 Y2.834
X-50.068 Y2.835
X-50.088 Y2.836
X-50.108
X-50.169 Y2.835
X-50.225 Y2.83
X-50.277 Y2.823
X-50.326 Y2.812
X-50.372 Y2.799
X-50.415 Y2.784
X-50.454 Y2.766
X-50.491 Y2.745
X-50.525 Y2.722
X-50.557 Y2.696
X-50.587 Y2.668
X-50.614 Y2.636
X-50.64 Y2.601
X-50.664 Y2.563
X-50.687 Y2.521
X-50.707 Y2.475
X-50.725 Y2.426
X-50.741 Y2.372
X-50.755 Y2.314
X-50.767 Y2.252
X-50.776 Y2.186
X-50.783 Y2.116
X-50.787 Y2.041
X-50.788 Y1.962
Y1.723
Y1.678
X-50.787 Y1.634
X-50.785 Y1.592
X-50.783 Y1.551
X-50.781 Y1.511
X-50.777 Y1.472
X-50.774 Y1.435
X-50.769 Y1.399
X-50.764 Y1.364
X-50.759 Y1.331
X-50.753 Y1.299
X-50.746 Y1.268
X-50.74 Y1.238
X-50.732 Y1.21
X-50.724 Y1.183
X-50.716 Y1.158
X-50.707 Y1.134
X-50.698 Y1.111
X-50.689 Y1.09
X-50.679 Y1.07
X-50.669 Y1.051
X-50.659 Y1.033
X-50.648 Y1.017
X-50.637 Y1.001
X-50.623 Y0.984
X-50.61 Y0.968
X-50.597 Y0.953
X-50.583 Y0.939
X-50.568 Y0.926
X-50.552 Y0.913
X-50.536 Y0.901
X-50.519 Y0.889
X-50.501 Y0.878
X-50.482 Y0.868
X-50.462 Y0.858
X-50.442 Y0.849
X-50.42 Y0.841
X-50.397 Y0.833
X-50.374 Y0.826
X-50.349 Y0.819
X-50.323 Y0.813
X-50.297 Y0.808
X-50.269 Y0.804
X-50.24 Y0.8
X-50.21 Y0.797
X-50.179 Y0.795
X-50.147 Y0.794
X-50.114
X-50.093
X-50.073 Y0.795
X-50.053 Y0.796
X-50.033 Y0.798
X-50.013 Y0.8
X-49.993 Y0.802
X-49.974 Y0.806
X-49.954 Y0.809
X-49.935 Y0.813
X-49.916 Y0.818
X-49.897 Y0.823
X-49.878 Y0.829
X-49.86 Y0.835
X-49.841 Y0.841
X-49.823 Y0.848
X-49.804 Y0.856
X-49.786 Y0.864
X-49.768 Y0.872
X-49.75 Y0.881
X-49.732 Y0.891
X-49.714 Y0.901
X-49.696 Y0.912
X-49.679 Y0.923
X-49.66 Y0.935
G2 X-49.427 Y0.81 I0.083 J-0.125
G1 Y0.685
G2 X-49.428 Y0.667 I-0.15
G1 X-49.431 Y0.638
X-49.438 Y0.603
G2 X-49.44 Y0.593 I-0.148 J0.026
G1 X-49.446 Y0.566
X-49.457 Y0.532
G2 X-49.46 Y0.522 I-0.143 J0.045
G1 X-49.47 Y0.498
G2 X-49.474 Y0.488 I-0.139 J0.055
G1 X-49.485 Y0.465
G2 X-49.49 Y0.455 I-0.135 J0.065
G1 X-49.503 Y0.433
G2 X-49.509 Y0.423 I-0.13 J0.075
G1 X-49.523 Y0.403
G2 X-49.53 Y0.394 I-0.124 J0.085
G1 X-49.546 Y0.374
G2 X-49.553 Y0.365 I-0.117 J0.094
G1 X-49.57 Y0.347
G2 X-49.578 Y0.339 I-0.11 J0.102
G1 X-49.597 Y0.322
G2 X-49.605 Y0.315 I-0.102 J0.11
G1 X-49.626 Y0.298
G2 X-49.634 Y0.292 I-0.094 J0.117
G1 X-49.656 Y0.277
X-49.687 Y0.258
X-49.72 Y0.241
X-49.755 Y0.225
X-49.791 Y0.211
X-49.827 Y0.199
X-49.865 Y0.189
X-49.904 Y0.181
X-49.945 Y0.173
X-49.986 Y0.168
X-50.028 Y0.163
X-50.072 Y0.161
X-50.089 Y0.16
X-50.11 Y0.159
X-50.131
X-50.152 Y0.161
X-50.173 Y0.163
X-50.194 Y0.165
X-50.215 Y0.169
X-50.235 Y0.174
X-50.256 Y0.179
X-50.276 Y0.185
X-50.296 Y0.192
X-50.316 Y0.199
X-50.336 Y0.208
X-50.355 Y0.217
X-50.374 Y0.226
X-50.393 Y0.237
X-50.412 Y0.248
X-50.43 Y0.26
X-50.449 Y0.272
X-50.466 Y0.285
X-50.484 Y0.299
X-50.501 Y0.313
X-50.518 Y0.328
X-50.535 Y0.344
G2 X-50.544 Y0.352 I0.102 J0.11
G1 X-50.643 Y0.381
X-50.653
X-50.664 Y0.379
X-50.676 Y0.377
X-50.687 Y0.375
X-50.734 Y0.29
X-50.709 Y0.193
X-50.697 Y0.177
X-50.69 Y0.169
X-50.683 Y0.161
X-50.675 Y0.153
X-50.667 Y0.145
X-50.659 Y0.137
X-50.65 Y0.13
X-50.641 Y0.122
X-50.631 Y0.114
X-50.621 Y0.107
X-50.611 Y0.1
X-50.6 Y0.092
X-50.588 Y0.085
X-50.576 Y0.078
X-50.564 Y0.072
X-50.552 Y0.065
X-50.538 Y0.058
X-50.525 Y0.052
X-50.511 Y0.045
X-50.496 Y0.039
X-50.481 Y0.033
X-50.465 Y0.027
X-50.448 Y0.021
X-50.425 Y0.012
X-50.407 Y0.005
X-50.389 Y-0.001
X-50.371 Y-0.007
X-50.354 Y-0.012
X-50.337 Y-0.017
X-50.321 Y-0.022
X-50.305 Y-0.026
X-50.289 Y-0.03
X-50.273 Y-0.034
X-50.258 Y-0.037
X-50.243 Y-0.04
X-50.229 Y-0.042
X-50.215 Y-0.044
X-50.201 Y-0.046
X-50.187 Y-0.047
X-50.174 Y-0.048
X-50.161 Y-0.049
X-50.149
X-50.137
X-50.125 Y-0.048
X-50.113
X-50.102 Y-0.047
X-50.089 Y-0.045
G2 X-50.079 I0.017 J-0.149
G1 X-50.001 Y-0.041
X-49.929 Y-0.035
X-49.862 Y-0.027
X-49.799 Y-0.016
X-49.739 Y-0.002
X-49.683 Y0.014
X-49.631 Y0.032
X-49.583 Y0.053
X-49.538 Y0.075
X-49.497 Y0.1
X-49.46 Y0.127
X-49.425 Y0.156
X-49.393 Y0.187
X-49.364 Y0.22
X-49.337 Y0.256
X-49.313 Y0.294
X-49.292 Y0.335
X-49.273 Y0.379
X-49.256 Y0.427
X-49.242 Y0.478
X-49.23 Y0.532
X-49.222 Y0.59
X-49.216 Y0.651
X-49.213 Y0.717
Y2.731
X-49.233 Y2.774
X-49.273 Y2.737
X-49.318 Y2.661
X-49.531 Y2.471
G3 X-49.533 Y2.385 I0.039 J-0.044
G1 X-49.53 Y2.382
X-49.512 Y2.363
X-49.496 Y2.344
X-49.481 Y2.324
X-49.465 Y2.303
X-49.451 Y2.282
G2 X-49.427 Y2.199 I-0.126 J-0.082
G1 Y1.287
G2 X-49.467 Y1.185 I-0.15
G1 X-49.483 Y1.168
X-49.502 Y1.149
X-49.52 Y1.131
X-49.54 Y1.113
X-49.56 Y1.096
X-49.58 Y1.08
X-49.601 Y1.065
X-49.622 Y1.05
X-49.644 Y1.037
X-49.665 Y1.024
X-49.688 Y1.011
X-49.71 Y1
X-49.734 Y0.989
X-49.757 Y0.98
X-49.78 Y0.971
X-49.805 Y0.963
X-49.829 Y0.956
X-49.853 Y0.95
X-49.878 Y0.945
X-49.903 Y0.941
X-49.928 Y0.938
X-49.954 Y0.936
X-49.979 Y0.934
X-50.005
X-50.046 Y0.935
X-50.087 Y0.938
X-50.128 Y0.944
G2 X-50.139 Y0.946 I0.023 J0.148
G1 X-50.168 Y0.953
G2 X-50.179 Y0.956 I0.034 J0.146
G1 X-50.207 Y0.965
G2 X-50.219 Y0.969 I0.044 J0.143
G1 X-50.245 Y0.979
G2 X-50.257 Y0.984 I0.056 J0.139
G1 X-50.282 Y0.997
G2 X-50.293 Y1.003 I0.067 J0.134
G1 X-50.317 Y1.018
G2 X-50.328 Y1.025 I0.078 J0.128
G1 X-50.35 Y1.042
G2 X-50.36 Y1.05 I0.089 J0.121
G1 X-50.381 Y1.068
G2 X-50.391 Y1.077 I0.099 J0.113
G1 X-50.41 Y1.097
G2 X-50.419 Y1.107 I0.108 J0.104
G1 X-50.437 Y1.13
G2 X-50.444 Y1.139 I0.117 J0.094
G1 X-50.46 Y1.163
G2 X-50.466 Y1.173 I0.124 J0.085
G1 X-50.482 Y1.199
G2 X-50.487 Y1.209 I0.13 J0.075
G1 X-50.5 Y1.237
X-50.517 Y1.276
X-50.531 Y1.316
X-50.543 Y1.359
X-50.553 Y1.402
X-50.56 Y1.447
X-50.566 Y1.493
X-50.571 Y1.541
X-50.573 Y1.591
X-50.574 Y1.641
Y2.033
X-50.573 Y2.077
X-50.571 Y2.122
X-50.567 Y2.166
X-50.561 Y2.209
X-50.553 Y2.25
X-50.543 Y2.289
X-50.531 Y2.328
G2 X-50.527 Y2.338 I0.143 J-0.046
G1 X-50.516 Y2.365
G2 X-50.512 Y2.375 I0.139 J-0.056
G1 X-50.499 Y2.4
G2 X-50.493 Y2.411 I0.134 J-0.067
G1 X-50.479 Y2.434
G2 X-50.472 Y2.446 I0.128 J-0.078
G1 X-50.456 Y2.466
G2 X-50.447 Y2.477 I0.121 J-0.089
G1 X-50.431 Y2.496
G2 X-50.42 Y2.507 I0.112 J-0.1
G1 X-50.402 Y2.524
G2 X-50.39 Y2.534 I0.101 J-0.111
G1 X-50.37 Y2.548
G2 X-50.357 Y2.557 I0.089 J-0.121
G1 X-50.336 Y2.569
G2 X-50.322 Y2.576 I0.076 J-0.129
G1 X-50.3 Y2.587
G2 X-50.286 Y2.592 I0.063 J-0.136
G1 X-50.262 Y2.601
G2 X-50.248 Y2.604 I0.049 J-0.142
G1 X-50.223 Y2.611
G2 X-50.21 Y2.613 I0.036 J-0.146
G1 X-50.183 Y2.617
G2 X-50.171 Y2.619 I0.023 J-0.148
G1 X-50.142 Y2.621
G2 X-50.131 I0.011 J-0.15
G1 X-50.101
X-50.06 Y2.619
X-50.018 Y2.614
X-49.976 Y2.606
X-49.947 Y2.6
X-49.919 Y2.594
X-49.892 Y2.586
X-49.865 Y2.579
X-49.839 Y2.57
X-49.813 Y2.561
X-49.788 Y2.552
X-49.764 Y2.541
X-49.739 Y2.53
X-49.716 Y2.519
X-49.693 Y2.506
X-49.67 Y2.493
X-49.648 Y2.479
X-49.627 Y2.465
X-49.606 Y2.45
X-49.586 Y2.434
X-49.567 Y2.417
X-49.548 Y2.4
X-49.533 Y2.385
X-49.493 Y2.425 Z-0.094 F1000
G0 Z2.3
X-45.578 Y-0.547
Z1
G1 Z0.5 F1000
G3 X-45.308 Y-0.637 Z0.421 I0.135 J-0.045 F100
X-45.578 Y-0.547 Z0.342 I-0.135 J0.045
X-45.308 Y-0.637 Z0.263 I0.135 J-0.045
X-45.578 Y-0.547 Z0.184 I-0.135 J0.045
X-45.308 Y-0.637 Z0.105 I0.135 J-0.045
X-45.578 Y-0.547 Z0.026 I-0.135 J0.045
X-45.308 Y-0.637 Z-0.053 I0.135 J-0.045
X-45.442 Y-0.45 Z-0.1 I-0.135 J0.045
X-50.173 Y-1.395 I-0.053 J-12.046
G1 X-51.02 Y-1.764
G2 X-51.194 Y-1.85 I-2.372 J4.605
X-51.383 Y-1.896 I-0.21 J0.447
G3 X-51.466 Y-2.053 I0.004 J-0.103
G1 X-51.458 Y-2.066
G3 X-51.32 Y-2.102 I0.088 J0.054
G1 X-50.354 Y-1.58
G2 X-44.955 Y-0.58 I4.787 J-10.771
X-39.68 Y-2.102 I-0.628 J-12.078
G3 X-39.542 Y-2.066 I0.05 J0.09
G1 X-39.534 Y-2.053
G3 X-39.617 Y-1.896 I-0.088 J0.054
G2 X-40.112 Y-1.745 I0.044 J1.028
G3 X-40.569 Y-1.503 I-2.093 J-3.409
X-45.442 Y-0.45 I-4.927 J-10.992
G2 X-45.533 Y-0.389 J0.099
G3 X-45.625 Y-0.328 I-0.09 J-0.038
X-49.422 Y-0.985 I0.143 J-12.137
X-50.294 Y-1.315 I4.507 J-13.211
X-51.138 Y-1.712 I4.16 J-9.961
G2 X-51.419 Y-1.78 I-0.28 J0.535
X-51.67 Y-1.636 J0.29
G1 X-51.955 Y-1.103
G3 X-52.085 Y-1.07 I-0.081 J-0.047
G1 X-52.101 Y-1.08
G3 X-52.132 Y-1.208 I0.049 J-0.079
G1 X-51.564 Y-2.131
G3 X-51.259 Y-2.21 I0.194 J0.119
G2 X-39.741 I5.759 J-10.299
G3 X-39.436 Y-2.131 I0.111 J0.199
G1 X-38.868 Y-1.208
G3 X-38.899 Y-1.08 I-0.079 J0.049
G1 X-38.915 Y-1.07
G3 X-39.045 Y-1.103 I-0.049 J-0.079
X-39.265 Y-1.577 I2.536 J-1.464
G2 X-39.753 Y-1.765 I-0.325 J0.117
G3 X-45.625 Y-0.328 I-5.729 J-10.7
G2 X-45.759 Y-0.242 I-0.002 J0.144
G3 X-45.894 Y-0.156 I-0.13 J-0.057
X-51.33 Y-1.613 I0.394 J-12.344
G2 X-51.53 Y-1.555 I-0.071 J0.132
G1 X-51.953 Y-0.823
X-52.375 Y-1.083
X-51.655 Y-2.254
G3 X-51.251 Y-2.368 I0.264 J0.163
G2 X-39.749 I5.751 J-10.132
G3 X-39.345 Y-2.254 I0.14 J0.277
G1 X-38.625 Y-1.083
X-39.047 Y-0.823
X-39.47 Y-1.555
G2 X-39.67 Y-1.613 I-0.13 J0.075
G3 X-45.894 Y-0.156 I-5.83 J-10.887
G1 X-45.892 Y-0.213 Z-0.094 F1000
G0 Z2.3
X-40.874 Y2.597
Z1
G1 Z0.5 F1000
G3 X-40.785 Y2.868 Z0.421 I0.044 J0.135 F100
X-40.874 Y2.597 Z0.342 I-0.044 J-0.135
X-40.785 Y2.868 Z0.263 I0.044 J0.135
X-40.874 Y2.597 Z0.184 I-0.044 J-0.135
X-40.785 Y2.868 Z0.105 I0.044 J0.135
X-40.874 Y2.597 Z0.026 I-0.044 J-0.135
X-40.785 Y2.868 Z-0.053 I0.044 J0.135
X-40.972 Y2.733 Z-0.1 I-0.044 J-0.135
X-40.796 I0.088
X-40.862 I-0.033
X-40.796 I0.033
X-40.886 Y2.855 I-0.128
X-41.009 Y2.765 I-0.028 J-0.09
G1 X-41.012 Y0.977
X-40.971 Y0.888
X-40.875 Y0.869
X-40.801 Y0.931
X-40.793 Y2.429
G2 X-40.769 Y2.511 I0.15
G1 X-40.756 Y2.531
X-40.739 Y2.555
X-40.721 Y2.579
X-40.702 Y2.601
X-40.683 Y2.622
X-40.662 Y2.643
X-40.64 Y2.663
X-40.618 Y2.681
X-40.595 Y2.699
X-40.571 Y2.715
X-40.546 Y2.731
X-40.521 Y2.745
X-40.495 Y2.758
X-40.468 Y2.77
X-40.441 Y2.78
X-40.413 Y2.79
X-40.384 Y2.798
X-40.355 Y2.805
X-40.326 Y2.811
X-40.296 Y2.816
X-40.266 Y2.82
X-40.236 Y2.822
X-40.205 Y2.824
X-40.173 Y2.825
X-40.14 Y2.823
G2 X-40.13 Y2.822 I-0.007 J-0.15
G1 X-40.108 Y2.82
G2 X-40.097 Y2.818 I-0.017 J-0.149
G1 X-40.075 Y2.814
G2 X-40.064 Y2.811 I-0.028 J-0.147
G1 X-40.043 Y2.806
G2 X-40.032 Y2.802 I-0.04 J-0.145
G1 X-40.012 Y2.795
G2 X-40.001 Y2.79 I-0.052 J-0.141
G1 X-39.982 Y2.781
G2 X-39.97 Y2.775 I-0.063 J-0.136
G1 X-39.953 Y2.765
G2 X-39.942 Y2.758 I-0.075 J-0.13
G1 X-39.925 Y2.746
G2 X-39.914 Y2.738 I-0.086 J-0.123
G1 X-39.899 Y2.725
G2 X-39.89 Y2.716 I-0.097 J-0.114
G1 X-39.875 Y2.702
G2 X-39.866 Y2.692 I-0.106 J-0.106
G1 X-39.853 Y2.676
G2 X-39.846 Y2.667 I-0.115 J-0.096
G1 X-39.833 Y2.649
G2 X-39.827 Y2.64 I-0.122 J-0.087
G1 X-39.816 Y2.621
G2 X-39.81 Y2.611 I-0.128 J-0.077
G1 X-39.8 Y2.59
X-39.786 Y2.56
X-39.775 Y2.528
X-39.764 Y2.495
X-39.756 Y2.461
X-39.749 Y2.426
X-39.744 Y2.39
X-39.739 Y2.354
X-39.736 Y2.316
X-39.734 Y2.277
Y2.237
X-39.738 Y0.972
X-39.698 Y0.883
X-39.602 Y0.864
X-39.528 Y0.926
X-39.52 Y2.284
X-39.521 Y2.351
X-39.525 Y2.413
X-39.531 Y2.471
X-39.539 Y2.526
X-39.549 Y2.577
X-39.562 Y2.624
X-39.576 Y2.668
X-39.593 Y2.709
X-39.611 Y2.746
X-39.63 Y2.78
X-39.652 Y2.811
X-39.675 Y2.839
X-39.699 Y2.865
X-39.726 Y2.888
X-39.754 Y2.91
X-39.786 Y2.929
X-39.819 Y2.946
X-39.855 Y2.961
X-39.895 Y2.975
X-39.937 Y2.986
X-39.982 Y2.994
X-40.031 Y3.001
X-40.083 Y3.005
X-40.141 Y3.006
X-40.161
X-40.18
X-40.199 Y3.005
X-40.218 Y3.004
X-40.236 Y3.002
X-40.255 Y3
X-40.273 Y2.997
X-40.291 Y2.994
X-40.309 Y2.991
X-40.327 Y2.987
X-40.344 Y2.982
X-40.361 Y2.978
X-40.378 Y2.972
X-40.396 Y2.966
X-40.412 Y2.96
X-40.429 Y2.954
X-40.446 Y2.947
X-40.462 Y2.939
X-40.479 Y2.931
X-40.495 Y2.922
X-40.511 Y2.914
X-40.527 Y2.904
X-40.544 Y2.894
X-40.561 Y2.883
G2 X-40.793 Y3.008 I-0.082 J0.125
G1 Y3.864
X-40.837 Y3.95
X-40.934 Y3.966
X-41.007 Y3.9
X-41.009 Y2.765
X-40.952 Z-0.094 F1000
G0 Z2.3
X-35.01 Y1.768
Z1
G1 Z0.5 F1000
G3 X-34.921 Y2.039 Z0.421 I0.044 J0.135 F100
X-35.01 Y1.768 Z0.342 I-0.044 J-0.135
X-34.921 Y2.039 Z0.263 I0.044 J0.135
X-35.01 Y1.768 Z0.184 I-0.044 J-0.135
X-34.921 Y2.039 Z0.105 I0.044 J0.135
X-35.01 Y1.768 Z0.026 I-0.044 J-0.135
X-34.921 Y2.039 Z-0.053 I0.044 J0.135
X-35.108 Y1.904 Z-0.1 I-0.044 J-0.135
X-34.938 I0.085
X-34.992 I-0.027
X-34.938 I0.027
G2 X-34.877 Y1.995 I0.099
G3 X-34.816 Y2.087 I-0.038 J0.092
G1 Y2.174
Y2.213
X-34.817 Y2.25
X-34.819 Y2.286
X-34.821 Y2.321
X-34.824 Y2.355
X-34.827 Y2.388
X-34.831 Y2.419
X-34.836 Y2.45
X-34.841 Y2.479
X-34.847 Y2.508
X-34.853 Y2.535
X-34.859 Y2.561
X-34.867 Y2.586
X-34.874 Y2.61
X-34.882 Y2.632
X-34.891 Y2.654
X-34.9 Y2.674
X-34.909 Y2.693
X-34.919 Y2.712
X-34.929 Y2.729
X-34.939 Y2.745
X-34.95 Y2.76
X-34.961 Y2.774
X-34.972 Y2.787
X-34.984 Y2.8
X-34.996 Y2.811
X-35.01 Y2.823
X-35.026 Y2.833
X-35.043 Y2.844
X-35.061 Y2.854
X-35.082 Y2.864
X-35.104 Y2.874
X-35.128 Y2.882
X-35.155 Y2.891
X-35.183 Y2.898
X-35.213 Y2.905
X-35.244 Y2.912
X-35.278 Y2.917
X-35.314 Y2.922
X-35.351 Y2.925
X-35.39 Y2.928
X-35.431 Y2.93
X-35.474 Y2.932
X-35.519
X-35.565 Y2.931
X-35.613 Y2.929
X-35.663 Y2.927
X-35.715 Y2.923
X-35.747 Y2.92
X-35.778 Y2.917
X-35.808 Y2.913
X-35.838 Y2.908
X-35.867 Y2.903
X-35.896 Y2.897
X-35.924 Y2.89
X-35.951 Y2.882
X-35.978 Y2.874
X-36.004 Y2.866
X-36.029 Y2.856
X-36.054 Y2.846
X-36.078 Y2.836
X-36.102 Y2.825
X-36.126 Y2.813
X-36.148 Y2.8
X-36.17 Y2.787
X-36.192 Y2.774
X-36.213 Y2.759
X-36.234 Y2.744
X-36.254 Y2.729
X-36.274 Y2.712
X-36.293 Y2.695
X-36.314 Y2.676
X-36.331 Y2.661
X-36.34 Y2.653
X-36.348 Y2.645
X-36.367 Y2.553
X-36.357 Y2.536
X-36.352 Y2.527
X-36.346 Y2.518
X-36.27 Y2.496
X-36.259 Y2.5
X-36.247 Y2.506
X-36.234 Y2.512
X-36.219 Y2.52
X-36.204 Y2.529
X-36.187 Y2.539
X-36.178 Y2.546
X-36.155 Y2.566
X-36.137 Y2.581
X-36.118 Y2.596
X-36.098 Y2.61
X-36.077 Y2.622
X-36.057 Y2.634
X-36.035 Y2.646
X-36.013 Y2.656
X-35.99 Y2.666
X-35.968 Y2.675
X-35.944 Y2.683
X-35.92 Y2.69
X-35.897 Y2.696
X-35.872 Y2.702
X-35.847 Y2.706
X-35.822 Y2.71
X-35.797 Y2.714
X-35.771 Y2.716
X-35.745 Y2.718
X-35.718 Y2.719
X-35.692
X-35.665
X-35.641 Y2.718
X-35.627
X-35.606
X-35.586
X-35.566 Y2.717
X-35.546 Y2.716
X-35.526 Y2.715
X-35.506 Y2.713
X-35.486 Y2.711
X-35.466 Y2.708
X-35.447 Y2.705
X-35.427 Y2.702
X-35.408 Y2.698
X-35.389 Y2.694
X-35.369 Y2.69
X-35.351 Y2.685
X-35.332 Y2.68
X-35.313 Y2.674
X-35.295 Y2.669
X-35.276 Y2.662
X-35.258 Y2.656
X-35.24 Y2.649
X-35.222 Y2.641
X-35.204 Y2.634
X-35.187 Y2.626
G2 X-35.147 Y2.599 I-0.063 J-0.136
G1 X-35.14 Y2.592
X-35.129 Y2.581
X-35.118 Y2.57
X-35.108 Y2.559
X-35.098 Y2.547
X-35.089 Y2.534
X-35.079 Y2.522
X-35.072 Y2.51
X-35.063 Y2.495
X-35.056 Y2.483
X-35.049 Y2.469
X-35.042 Y2.455
X-35.036 Y2.441
X-35.03 Y2.426
X-35.025 Y2.411
X-35.02 Y2.397
X-35.016 Y2.383
X-35.012 Y2.366
X-35.009 Y2.352
X-35.006 Y2.337
X-35.003 Y2.32
X-35.001 Y2.306
X-34.999 Y2.291
X-34.998 Y2.274
G2 Y2.257 I-0.15 J-0.011
G1 X-35.002 Y2.132
G2 X-35.17 Y1.989 I-0.15 J0.006
G1 X-35.327 Y2.007
X-35.391 Y2.018
X-35.444 Y2.026
X-35.495 Y2.033
X-35.545 Y2.039
X-35.593 Y2.043
X-35.641 Y2.046
X-35.686 Y2.048
X-35.731
X-35.774 Y2.047
X-35.815 Y2.045
X-35.855 Y2.042
X-35.894 Y2.037
X-35.931 Y2.032
X-35.967 Y2.025
X-36.002 Y2.017
X-36.035 Y2.008
X-36.067 Y1.998
X-36.097 Y1.987
X-36.126 Y1.975
X-36.154 Y1.961
X-36.181 Y1.947
X-36.207 Y1.932
X-36.231 Y1.916
X-36.258 Y1.897
X-36.27 Y1.888
X-36.278 Y1.88
X-36.286 Y1.873
X-36.294 Y1.864
X-36.302 Y1.854
X-36.31 Y1.844
X-36.317 Y1.833
X-36.325 Y1.82
X-36.332 Y1.806
X-36.339 Y1.791
X-36.345 Y1.775
X-36.351 Y1.758
X-36.357 Y1.739
X-36.363 Y1.719
X-36.368 Y1.698
X-36.372 Y1.675
X-36.376 Y1.652
X-36.379 Y1.627
X-36.382 Y1.601
X-36.384 Y1.573
X-36.386 Y1.544
X-36.387 Y1.514
Y1.483
Y1.449
Y1.416
X-36.386 Y1.392
X-36.385 Y1.37
X-36.384 Y1.349
X-36.382 Y1.328
X-36.379 Y1.308
X-36.376 Y1.288
X-36.373 Y1.269
X-36.369 Y1.251
X-36.364 Y1.233
X-36.359 Y1.216
X-36.353 Y1.2
X-36.347 Y1.184
X-36.341 Y1.168
X-36.334 Y1.154
X-36.327 Y1.139
X-36.319 Y1.125
X-36.311 Y1.112
X-36.302 Y1.099
X-36.293 Y1.086
X-36.283 Y1.073
X-36.272 Y1.062
X-36.262 Y1.05
X-36.25 Y1.039
X-36.237 Y1.026
X-36.221 Y1.013
X-36.207 Y1.001
X-36.192 Y0.989
X-36.177 Y0.979
X-36.161 Y0.968
X-36.144 Y0.958
X-36.127 Y0.949
X-36.109 Y0.94
X-36.091 Y0.931
X-36.071 Y0.923
X-36.051 Y0.916
X-36.03 Y0.909
X-36.008 Y0.902
X-35.986 Y0.896
X-35.963 Y0.89
X-35.939 Y0.885
X-35.914 Y0.881
X-35.888 Y0.877
X-35.862 Y0.874
X-35.834 Y0.871
X-35.806 Y0.869
X-35.777 Y0.867
X-35.748 Y0.866
X-35.717
X-35.685
X-35.654 Y0.867
X-35.624 Y0.869
X-35.595 Y0.871
X-35.566 Y0.874
X-35.539 Y0.878
X-35.512 Y0.882
X-35.486 Y0.887
X-35.461 Y0.893
X-35.437 Y0.899
X-35.414 Y0.905
X-35.391 Y0.913
X-35.37 Y0.92
X-35.349 Y0.929
X-35.329 Y0.937
X-35.309 Y0.947
X-35.291 Y0.957
X-35.273 Y0.967
X-35.256 Y0.978
X-35.239 Y0.989
X-35.224 Y1.001
X-35.208 Y1.013
X-35.194 Y1.026
X-35.178 Y1.042
G2 X-34.941 Y1.005 I0.104 J-0.108
G1 X-34.881 Y0.925
X-34.79 Y0.875
X-34.715 Y0.866
X-34.698 Y0.865
X-34.649 Y0.901
G2 X-34.682 Y0.936 I0.089 J0.121
G1 X-34.691 Y0.948
X-34.702 Y0.964
X-34.712 Y0.98
X-34.722 Y0.997
X-34.73 Y1.012
X-34.74 Y1.03
X-34.748 Y1.047
X-34.755 Y1.064
X-34.763 Y1.082
X-34.77 Y1.099
X-34.776 Y1.118
X-34.782 Y1.134
X-34.788 Y1.154
X-34.792 Y1.171
X-34.797 Y1.19
X-34.801 Y1.208
X-34.805 Y1.228
X-34.807 Y1.247
X-34.81 Y1.265
X-34.812 Y1.285
X-34.814 Y1.304
X-34.815 Y1.323
X-34.816 Y1.343
Y1.362
Y2.087
G3 X-34.873 Y2.106 I-0.032
G1 X-34.936 Y2.021
X-35.081 Y1.876
G3 X-35.083 Y1.811 I0.032 J-0.034
G1 X-35.068 Y1.794
X-35.052 Y1.775
X-35.038 Y1.754
X-35.025 Y1.732
X-35.013 Y1.71
G2 X-35.009 Y1.7 I-0.133 J-0.068
G1 X-35.002 Y1.686
X-34.993 Y1.662
X-34.986 Y1.637
X-34.98 Y1.613
X-34.976 Y1.587
X-34.973 Y1.562
X-34.971 Y1.536
Y1.51
X-34.973 Y1.485
X-34.975 Y1.459
X-34.979 Y1.433
X-34.983 Y1.407
X-34.989 Y1.381
X-34.996 Y1.356
X-35.004 Y1.329
G2 X-35.016 Y1.301 I-0.143 J0.044
G1 X-35.023 Y1.288
X-35.036 Y1.268
G2 X-35.042 Y1.259 I-0.127 J0.08
G1 X-35.051 Y1.247
X-35.067 Y1.227
X-35.084 Y1.209
X-35.101 Y1.192
X-35.121 Y1.175
X-35.141 Y1.16
X-35.161 Y1.146
X-35.183 Y1.132
X-35.205 Y1.119
X-35.228 Y1.107
X-35.252 Y1.096
X-35.276 Y1.085
X-35.301 Y1.075
X-35.327 Y1.066
X-35.354 Y1.057
X-35.381 Y1.049
X-35.409 Y1.041
X-35.438 Y1.033
X-35.467 Y1.026
X-35.498 Y1.02
X-35.529 Y1.014
X-35.562 Y1.008
G2 X-35.58 Y1.006 I-0.026 J0.148
G1 X-35.617 Y1.004
X-35.657
X-35.696
X-35.734 Y1.007
X-35.771 Y1.01
X-35.807 Y1.015
X-35.842 Y1.022
X-35.877 Y1.03
X-35.91 Y1.041
X-35.943 Y1.053
X-35.975 Y1.067
G2 X-35.984 Y1.071 I0.062 J0.137
G1 X-36.006 Y1.083
G2 X-36.015 Y1.088 I0.071 J0.132
G1 X-36.035 Y1.101
G2 X-36.044 Y1.107 I0.08 J0.127
G1 X-36.063 Y1.121
G2 X-36.072 Y1.128 I0.089 J0.12
G1 X-36.089 Y1.144
G2 X-36.098 Y1.152 I0.098 J0.113
G1 X-36.114 Y1.168
G2 X-36.122 Y1.177 I0.107 J0.105
G1 X-36.137 Y1.194
G2 X-36.144 Y1.204 I0.115 J0.097
G1 X-36.158 Y1.223
G2 X-36.164 Y1.232 I0.122 J0.087
G1 X-36.176 Y1.252
G2 X-36.181 Y1.262 I0.129 J0.077
G1 X-36.192 Y1.283
G2 X-36.196 Y1.293 I0.134 J0.068
G1 X-36.206 Y1.315
G2 X-36.21 Y1.325 I0.138 J0.058
G1 X-36.218 Y1.349
X-36.227 Y1.383
X-36.234 Y1.418
G2 X-36.237 Y1.434 I0.147 J0.03
G1 X-36.241 Y1.485
G2 Y1.518 I0.149 J0.013
G1 X-36.237 Y1.545
X-36.232 Y1.578
X-36.224 Y1.61
X-36.216 Y1.641
X-36.206 Y1.671
X-36.194 Y1.701
X-36.18 Y1.73
X-36.165 Y1.758
G2 X-36.16 Y1.767 I0.131 J-0.074
G1 X-36.148 Y1.785
X-36.129 Y1.809
G2 X-36.122 Y1.818 I0.119 J-0.091
G1 X-36.108 Y1.834
G2 X-36.1 Y1.842 I0.112 J-0.1
G1 X-36.086 Y1.856
G2 X-36.077 Y1.864 I0.105 J-0.108
G1 X-36.061 Y1.877
G2 X-36.052 Y1.884 I0.096 J-0.115
G1 X-36.035 Y1.896
G2 X-36.026 Y1.902 I0.087 J-0.122
G1 X-36.008 Y1.913
G2 X-35.999 Y1.918 I0.078 J-0.128
G1 X-35.98 Y1.928
G2 X-35.971 Y1.933 I0.069 J-0.133
G1 X-35.95 Y1.941
X-35.92 Y1.952
X-35.889 Y1.962
X-35.858 Y1.969
X-35.825 Y1.975
X-35.792 Y1.979
X-35.759 Y1.981
X-35.725 Y1.982
X-35.699
X-35.675 Y1.981
X-35.651
X-35.627 Y1.98
X-35.604 Y1.978
X-35.581 Y1.977
X-35.557 Y1.975
X-35.535 Y1.972
X-35.512 Y1.97
X-35.489 Y1.967
X-35.467 Y1.964
X-35.445 Y1.96
X-35.423 Y1.957
X-35.401 Y1.953
X-35.379 Y1.948
X-35.358 Y1.943
X-35.337 Y1.938
X-35.316 Y1.933
X-35.295 Y1.927
X-35.274 Y1.921
X-35.253 Y1.915
X-35.233 Y1.908
X-35.213 Y1.901
X-35.193 Y1.894
G2 X-35.156 Y1.874 I-0.052 J-0.141
G1 X-35.142 Y1.864
X-35.122 Y1.848
X-35.103 Y1.831
X-35.085 Y1.813
X-35.083 Y1.811
X-35.042 Y1.851 Z-0.094 F1000
G0 Z2.3
X-23.778 Y0.665
Z1
G1 Z0.5 F1000
G3 X-23.689 Y0.935 Z0.421 I0.044 J0.135 F100
X-23.778 Y0.665 Z0.342 I-0.044 J-0.135
X-23.689 Y0.935 Z0.263 I0.044 J0.135
X-23.778 Y0.665 Z0.184 I-0.044 J-0.135
X-23.689 Y0.935 Z0.105 I0.044 J0.135
X-23.778 Y0.665 Z0.026 I-0.044 J-0.135
X-23.689 Y0.935 Z-0.053 I0.044 J0.135
X-23.876 Y0.8 Z-0.1 I-0.044 J-0.135
G1 Y-38.968
G3 X-23.781 I0.047
G1 Y0.804
G3 X-23.824 Y0.847 I-0.043
X-23.876 Y0.804 I-0.009 J-0.042
G1 Y0.8
G2 X-23.925 Y0.726 I-0.08
G3 X-23.974 Y0.653 I0.031 J-0.074
G1 Y-38.968
G3 X-23.683 I0.146
G1 Y0.816
G3 X-23.813 Y0.946 I-0.13
G1 X-23.844
G3 X-23.974 Y0.816 J-0.13
G1 Y0.653
G2 X-24.049 Y0.54 I-0.122
G3 X-24.124 Y0.428 I0.047 J-0.112
G1 Y-39.029
G3 X-23.888 Y-39.264 I0.235
G1 X-23.768
G3 X-23.533 Y-39.029 J0.235
G1 Y0.86
G3 X-23.768 Y1.095 I-0.235
G1 X-23.888
G3 X-24.124 Y0.86 J-0.235
G1 Y0.428
G2 X-24.201 Y0.312 I-0.126
G3 X-24.278 Y0.196 I0.048 J-0.116
G1 Y-39.418
X-23.378
Y1.25
X-24.278
Y0.196
X-24.221 Z-0.094 F1000
G0 Z2.3
X-15.979 Y6.817
Z1
G1 Z0.5 F1000
G3 X-15.724 Y6.69 Z0.421 I0.127 J-0.064 F100
X-15.979 Y6.817 Z0.342 I-0.127 J0.064
X-15.724 Y6.69 Z0.263 I0.127 J-0.064
X-15.979 Y6.817 Z0.184 I-0.127 J0.064
X-15.724 Y6.69 Z0.105 I0.127 J-0.064
X-15.979 Y6.817 Z0.026 I-0.127 J0.064
X-15.724 Y6.69 Z-0.053 I0.127 J-0.064
X-15.83 Y6.895 Z-0.1 I-0.127 J0.064
X-15.882 Y6.893 I-0.023 J-0.154
X-15.948 Y6.853 I0.021 J-0.108
X-20.456 Y-5.843 I16.825 J-13.122
X-20.346 Y-5.956 I0.11 J-0.002
G1 X-20.326
G3 X-20.23 Y-5.79 J0.11
G2 X-20.278 Y-5.68 I0.468 J0.269
X-20.293 Y-5.56 I0.339 J0.104
X-15.73 Y6.7 I21.328 J-0.959
G3 X-15.729 Y6.835 I-0.087 J0.068
X-15.83 Y6.895 I-0.124 J-0.094
G2 X-15.899 Y6.951 I0.013 J0.086
G3 X-15.984 Y6.979 I-0.054 J-0.02
X-16.037 Y6.931 I0.112 J-0.177
X-20.575 Y-5.861 I16.781 J-13.153
X-20.365 Y-6.074 I0.21 J-0.004
G1 X-19.275
G3 X-19.189 Y-5.988 J0.086
G1 Y-5.971
G3 X-19.275 Y-5.885 I-0.086
X-19.806 Y-5.922 J-3.789
G2 X-20.2 Y-5.564 I-0.048 J0.342
X-18.87 Y0.894 I20.915 J-0.94
X-15.629 Y6.637 I20.296 J-7.667
G3 X-15.602 Y6.85 I-0.165 J0.13
X-15.936 Y7.002 I-0.251 J-0.11
X-15.984 Y6.979 I0.064 J-0.2
G2 X-16.107 Y6.971 I-0.069 J0.11
G3 X-16.226 Y6.941 I-0.041 J-0.091
X-20.734 Y-6.229 I17.043 J-13.189
G1 X-19.033
Y-5.729
X-19.862
G2 X-20.012 Y-5.573 J0.15
X-15.44 Y6.626 I21.086 J-0.948
G3 X-16.122 Y7.075 I-0.413 J0.115
X-16.226 Y6.941 I16.939 J-13.323
G1 X-16.181 Y6.906 Z-0.094 F1000
G0 Z2.3
X-18.693 Y9.638
Z1
G1 Z0.5 F1000
G3 X-18.829 Y9.888 Z0.421 I-0.068 J0.125 F100
X-18.693 Y9.638 Z0.342 I0.068 J-0.125
X-18.829 Y9.888 Z0.263 I-0.068 J0.125
X-18.693 Y9.638 Z0.184 I0.068 J-0.125
X-18.829 Y9.888 Z0.105 I-0.068 J0.125
X-18.693 Y9.638 Z0.026 I0.068 J-0.125
X-18.829 Y9.888 Z-0.053 I-0.068 J0.125
X-18.858 Y9.659 Z-0.1 I0.068 J-0.125
G2 X-18.804 Y9.589 I-0.196 J-0.208
X-18.799 Y9.579 I-0.154 J-0.085
G3 X-18.794 Y9.57 I0.159 J0.075
X-18.757 Y9.578 I0.017 J0.01
G2 X-18.705 Y9.727 I0.281 J-0.014
X-18.578 Y9.82 I0.202 J-0.144
G3 X-18.369 Y9.91 I-0.339 J1.071
X-18.199 Y10.061 I-0.259 J0.464
X-18.074 Y10.39 I-0.537 J0.392
X-18.083 Y10.742 I-1.464 J0.14
X-18.156 Y10.985 I-0.851 J-0.124
X-18.326 Y11.173 I-0.395 J-0.186
X-18.648 Y11.292 I-0.474 J-0.789
X-18.99 Y11.321 I-0.351 J-2.091
G1 X-20.143 Y11.328
G3 X-20.202 Y11.269 J-0.059
G1 Y8.278
G3 X-20.197 Y8.267 I0.015
X-20.168 Y8.275 I0.013 J0.008
G1 X-20.175 Y9.463
G2 X-19.908 Y9.73 I0.267
G1 X-19.032
G2 X-18.899 Y9.691 J-0.246
X-18.858 Y9.659 I-0.156 J-0.24
X-18.843 Y9.548 I-0.061 J-0.065
G3 X-18.846 Y9.435 I0.095 J-0.058
G1 X-18.835 Y9.416
X-18.803 Y9.358
X-18.77 Y9.299
X-18.738 Y9.242
X-18.707 Y9.184
X-18.675 Y9.128
X-18.644 Y9.071
X-18.613 Y9.015
X-18.582 Y8.96
X-18.552 Y8.905
X-18.522 Y8.851
X-18.492 Y8.797
X-18.462 Y8.744
X-18.433 Y8.691
X-18.404 Y8.638
X-18.375 Y8.586
X-18.347 Y8.535
X-18.318 Y8.484
X-18.29 Y8.434
X-18.263 Y8.384
X-18.235 Y8.334
X-18.208 Y8.285
X-18.181 Y8.237
X-18.175 Y8.225
X-18.17 Y8.216
X-18.094 Y8.154
X-17.997 Y8.17
X-17.972 Y8.268
X-17.991 Y8.33
X-18.012 Y8.373
X-18.033 Y8.417
X-18.054 Y8.461
X-18.076 Y8.506
X-18.099 Y8.551
X-18.122 Y8.596
X-18.146 Y8.643
X-18.17 Y8.689
X-18.194 Y8.736
X-18.22 Y8.783
X-18.245 Y8.831
X-18.271 Y8.879
X-18.298 Y8.927
X-18.325 Y8.976
X-18.353 Y9.025
X-18.381 Y9.075
X-18.41 Y9.125
X-18.439 Y9.175
X-18.469 Y9.226
X-18.499 Y9.277
X-18.53 Y9.329
X-18.561 Y9.381
X-18.593 Y9.434
X-18.625 Y9.487
G2 X-18.543 Y9.708 I0.128 J0.078
G1 X-18.49 Y9.724
X-18.443 Y9.742
X-18.399 Y9.76
X-18.357 Y9.78
X-18.318 Y9.802
X-18.281 Y9.825
X-18.246 Y9.849
X-18.214 Y9.874
X-18.183 Y9.902
X-18.155 Y9.93
X-18.129 Y9.96
X-18.104 Y9.991
X-18.081 Y10.025
X-18.061 Y10.059
X-18.041 Y10.096
X-18.024 Y10.135
X-18.008 Y10.176
X-17.995 Y10.218
X-17.983 Y10.263
X-17.973 Y10.31
X-17.964 Y10.36
X-17.958 Y10.411
X-17.954 Y10.465
X-17.952 Y10.521
Y10.57
X-17.953 Y10.609
X-17.955 Y10.648
X-17.958 Y10.686
X-17.962 Y10.723
X-17.966 Y10.759
X-17.972 Y10.793
X-17.978 Y10.826
X-17.986 Y10.859
X-17.993 Y10.89
X-18.002 Y10.919
X-18.012 Y10.948
X-18.022 Y10.976
X-18.033 Y11.002
X-18.044 Y11.028
X-18.057 Y11.052
X-18.07 Y11.076
X-18.083 Y11.098
X-18.098 Y11.119
X-18.113 Y11.14
X-18.129 Y11.16
X-18.145 Y11.179
X-18.162 Y11.196
X-18.18 Y11.213
X-18.197 Y11.228
X-18.216 Y11.242
X-18.241 Y11.258
X-18.266 Y11.274
X-18.291 Y11.288
X-18.318 Y11.303
X-18.345 Y11.316
X-18.373 Y11.329
X-18.402 Y11.341
X-18.432 Y11.353
X-18.463 Y11.363
X-18.495 Y11.374
X-18.527 Y11.383
X-18.561 Y11.392
X-18.595 Y11.4
X-18.63 Y11.407
X-18.666 Y11.413
X-18.704 Y11.419
X-18.742 Y11.424
X-18.78 Y11.429
X-18.82 Y11.432
X-18.861 Y11.435
X-18.903 Y11.437
X-18.945 Y11.438
X-18.989
X-20.184
X-20.274 Y11.4
X-20.313 Y11.309
Y8.277
X-20.27 Y8.184
X-20.175 Y8.149
X-20.086 Y8.194
X-20.058 Y9.463
G2 X-19.908 Y9.613 I0.15
G1 X-19.032
G2 X-18.901 Y9.535 J-0.15
G1 X-18.868 Y9.476
X-18.846 Y9.435
X-18.796 Y9.463 Z-0.094 F1000
G0 Z1.1
X-18.935 Y9.678
Z1
G1 Z0.5 F1000
G3 X-18.653 Y9.633 Z0.421 I0.141 J-0.023 F100
X-18.935 Y9.678 Z0.342 I-0.141 J0.023
X-18.653 Y9.633 Z0.263 I0.141 J-0.023
X-18.935 Y9.678 Z0.184 I-0.141 J0.023
X-18.653 Y9.633 Z0.105 I0.141 J-0.023
X-18.935 Y9.678 Z0.026 I-0.141 J0.023
X-18.653 Y9.633 Z-0.053 I0.141 J-0.023
X-18.816 Y9.796 Z-0.1 I-0.141 J0.023
G2 X-18.861 Y9.79 I-0.191 J1.22
X-18.97 Y9.784 I-0.109 J0.914
X-19.001 J1.972
G3 X-19.032 I-0.031 J-1.972
G1 X-19.908
G2 X-20.17 Y10.046 J0.262
G1 Y11.029
G2 X-19.908 Y11.291 I0.262
G1 X-18.774 Y11.277
G2 X-18.4 Y11.136 I-0.103 J-0.838
X-18.156 Y10.821 I-0.366 J-0.536
X-18.126 Y10.364 I-0.778 J-0.28
X-18.381 Y9.983 I-0.613 J0.134
X-18.558 Y9.877 I-0.861 J1.237
X-18.753 Y9.808 I-0.357 J0.701
X-18.816 Y9.796 I-0.254 J1.209
X-18.911 Y9.842 I-0.014 J0.091
G3 X-19.001 Y9.896 I-0.092 J-0.052
G1 X-19.015
X-19.908
G2 X-20.058 Y10.046 J0.15
G1 Y11.029
G2 X-19.908 Y11.179 I0.15
G1 X-18.998
X-18.946
X-18.891 Y11.176
X-18.838 Y11.172
X-18.787 Y11.166
X-18.738 Y11.158
X-18.69 Y11.147
X-18.645 Y11.135
X-18.6 Y11.12
X-18.558 Y11.103
G2 X-18.548 Y11.098 I-0.057 J-0.139
G1 X-18.516 Y11.083
G2 X-18.507 Y11.078 I-0.067 J-0.134
G1 X-18.478 Y11.06
G2 X-18.468 Y11.054 I-0.077 J-0.129
G1 X-18.441 Y11.035
G2 X-18.431 Y11.027 I-0.087 J-0.123
G1 X-18.407 Y11.006
G2 X-18.397 Y10.998 I-0.097 J-0.115
G1 X-18.375 Y10.975
G2 X-18.366 Y10.965 I-0.106 J-0.106
G1 X-18.345 Y10.941
G2 X-18.337 Y10.931 I-0.115 J-0.096
G1 X-18.319 Y10.905
G2 X-18.312 Y10.893 I-0.123 J-0.086
G1 X-18.297 Y10.866
G2 X-18.291 Y10.855 I-0.13 J-0.074
G1 X-18.277 Y10.825
G2 X-18.273 Y10.814 I-0.136 J-0.063
G1 X-18.261 Y10.783
G2 X-18.258 Y10.771 I-0.141 J-0.051
G1 X-18.249 Y10.739
G2 X-18.246 Y10.728 I-0.145 J-0.04
G1 X-18.24 Y10.694
G2 X-18.238 Y10.683 I-0.147 J-0.029
G1 X-18.234 Y10.647
X-18.231 Y10.6
Y10.552
Y10.53
X-18.23 Y10.513
Y10.488
X-18.231 Y10.464
X-18.234 Y10.439
X-18.236 Y10.416
X-18.24 Y10.393
X-18.245 Y10.37
X-18.251 Y10.347
X-18.258 Y10.324
X-18.267 Y10.301
X-18.275 Y10.28
X-18.286 Y10.258
X-18.297 Y10.238
X-18.309 Y10.217
X-18.322 Y10.198
X-18.337 Y10.178
X-18.351 Y10.16
X-18.367 Y10.142
X-18.384 Y10.125
X-18.402 Y10.109
X-18.421 Y10.093
X-18.439 Y10.079
X-18.459 Y10.065
X-18.476 Y10.054
X-18.489 Y10.044
X-18.508 Y10.031
X-18.529 Y10.018
X-18.549 Y10.006
X-18.57 Y9.994
X-18.592 Y9.983
X-18.612 Y9.973
X-18.635 Y9.963
X-18.657 Y9.954
X-18.679 Y9.946
X-18.701 Y9.938
X-18.725 Y9.931
X-18.748 Y9.925
X-18.771 Y9.919
X-18.795 Y9.914
X-18.818 Y9.909
X-18.843 Y9.905
X-18.867 Y9.902
X-18.891 Y9.9
X-18.917 Y9.898
X-18.941 Y9.897
X-18.966 Y9.896
X-18.991
X-19.001
X-19.002 Y9.839 Z-0.094 F1000
G0 Z2.3
X-17.179 Y9.444
Z1
G1 Z0.5 F1000
G3 X-17.385 Y9.257 Z0.423 I-0.103 J-0.094 F100
X-17.179 Y9.444 Z0.346 I0.103 J0.094
X-17.385 Y9.257 Z0.268 I-0.103 J-0.094
X-17.179 Y9.444 Z0.191 I0.103 J0.094
X-17.385 Y9.257 Z0.114 I-0.103 J-0.094
X-17.179 Y9.444 Z0.037 I0.103 J0.094
X-17.385 Y9.257 Z-0.041 I-0.103 J-0.094
X-17.143 Y9.351 Z-0.1 I0.103 J0.094
X-17.306 I-0.082
G1 Y9.226
G3 X-17.123 Y8.67 I1.248 J0.103
X-16.658 Y8.314 I0.7 J0.433
X-16.004 Y8.302 I0.349 J1.169
X-15.48 Y8.693 I-0.216 J0.836
X-15.404 Y8.858 I-0.718 J0.432
X-15.361 Y9.036 I-1.01 J0.338
X-15.349 Y9.15 I-1.067 J0.163
X-15.347 Y9.264 I-2.509 J0.115
G1 X-15.353 Y10.537
G3 X-15.577 Y11.031 I-0.921 J-0.119
X-16.043 Y11.309 I-0.664 J-0.584
X-16.824 Y11.205 I-0.251 J-1.098
X-17.291 Y10.572 I0.429 J-0.806
X-17.308 Y10.434 I0.926 J-0.178
X-17.311 Y10.295 I3.262 J-0.139
G1 X-17.306 Y9.351
G2 X-17.361 Y9.265 I-0.093
G3 X-17.412 Y9.178 I0.035 J-0.079
G1 Y9.171
X-17.406 Y9.126
X-17.399 Y9.082
X-17.392 Y9.039
X-17.383 Y8.997
X-17.372 Y8.956
X-17.361 Y8.916
X-17.349 Y8.876
X-17.335 Y8.838
X-17.321 Y8.801
X-17.305 Y8.765
X-17.288 Y8.729
X-17.271 Y8.694
X-17.252 Y8.661
X-17.232 Y8.628
X-17.211 Y8.596
X-17.188 Y8.564
X-17.165 Y8.534
X-17.14 Y8.504
X-17.115 Y8.475
X-17.088 Y8.446
X-17.06 Y8.419
X-17.036 Y8.398
X-17.012 Y8.377
X-16.987 Y8.358
X-16.962 Y8.339
X-16.936 Y8.321
X-16.909 Y8.304
X-16.881 Y8.288
X-16.853 Y8.273
X-16.824 Y8.259
X-16.794 Y8.246
X-16.764 Y8.233
X-16.733 Y8.222
X-16.7 Y8.211
X-16.668 Y8.201
X-16.634 Y8.192
X-16.599 Y8.184
X-16.564 Y8.177
X-16.528 Y8.171
X-16.491 Y8.166
X-16.453 Y8.161
X-16.414 Y8.158
X-16.374 Y8.155
X-16.334 Y8.154
X-16.292 Y8.153
X-16.258 Y8.154
X-16.224 Y8.155
X-16.191 Y8.157
X-16.159 Y8.16
X-16.127 Y8.164
X-16.095 Y8.169
X-16.064 Y8.174
X-16.033 Y8.18
X-16.003 Y8.187
X-15.973 Y8.195
X-15.943 Y8.204
X-15.914 Y8.213
X-15.885 Y8.224
X-15.857 Y8.235
X-15.829 Y8.247
X-15.802 Y8.26
X-15.775 Y8.273
X-15.748 Y8.288
X-15.721 Y8.303
X-15.695 Y8.319
X-15.669 Y8.336
X-15.644 Y8.354
X-15.619 Y8.373
X-15.595 Y8.391
X-15.568 Y8.415
X-15.541 Y8.44
X-15.515 Y8.466
X-15.49 Y8.493
X-15.467 Y8.52
X-15.445 Y8.548
X-15.424 Y8.576
X-15.404 Y8.606
X-15.385 Y8.635
X-15.367 Y8.666
X-15.351 Y8.697
X-15.335 Y8.73
X-15.321 Y8.763
X-15.308 Y8.797
X-15.296 Y8.831
X-15.284 Y8.867
X-15.274 Y8.904
X-15.265 Y8.941
X-15.258 Y8.979
X-15.251 Y9.019
X-15.246 Y9.059
X-15.241 Y9.1
X-15.238 Y9.142
X-15.236 Y9.184
Y10.363
X-15.235 Y10.407
Y10.444
X-15.236 Y10.48
X-15.239 Y10.516
X-15.243 Y10.551
X-15.248 Y10.586
X-15.254 Y10.621
X-15.262 Y10.655
X-15.271 Y10.688
X-15.281 Y10.722
X-15.292 Y10.755
X-15.305 Y10.787
X-15.319 Y10.82
X-15.334 Y10.852
X-15.351 Y10.884
X-15.369 Y10.916
X-15.388 Y10.947
X-15.408 Y10.978
X-15.431 Y11.009
X-15.454 Y11.04
X-15.479 Y11.071
X-15.505 Y11.101
X-15.533 Y11.131
X-15.562 Y11.161
X-15.587 Y11.186
X-15.612 Y11.209
X-15.638 Y11.231
X-15.665 Y11.252
X-15.691 Y11.271
X-15.719 Y11.29
X-15.747 Y11.308
X-15.775 Y11.324
X-15.803 Y11.339
X-15.832 Y11.354
X-15.862 Y11.367
X-15.892 Y11.379
X-15.923 Y11.39
X-15.954 Y11.4
X-15.986 Y11.409
X-16.019 Y11.417
X-16.052 Y11.424
X-16.085 Y11.43
X-16.12 Y11.435
X-16.155 Y11.439
X-16.191 Y11.442
X-16.227 Y11.443
X-16.265 Y11.444
X-16.305 Y11.443
X-16.346 Y11.444
X-16.38
X-16.413 Y11.442
X-16.446 Y11.44
X-16.478 Y11.436
X-16.511 Y11.431
X-16.544 Y11.425
X-16.577 Y11.418
X-16.609 Y11.41
X-16.642 Y11.4
X-16.674 Y11.39
X-16.707 Y11.378
X-16.739 Y11.365
X-16.772 Y11.35
X-16.805 Y11.335
X-16.837 Y11.318
X-16.87 Y11.3
X-16.903 Y11.281
X-16.936 Y11.26
X-16.969 Y11.238
X-17.002 Y11.215
X-17.035 Y11.191
X-17.067 Y11.165
X-17.097 Y11.14
X-17.123 Y11.116
X-17.15 Y11.088
X-17.176 Y11.06
X-17.2 Y11.031
X-17.223 Y11.001
X-17.245 Y10.971
X-17.265 Y10.94
X-17.284 Y10.909
X-17.302 Y10.877
X-17.318 Y10.844
X-17.334 Y10.81
X-17.348 Y10.776
X-17.361 Y10.741
X-17.372 Y10.705
X-17.383 Y10.669
X-17.392 Y10.631
X-17.4 Y10.593
X-17.407 Y10.554
X-17.413 Y10.514
X-17.417 Y10.473
X-17.42 Y10.431
X-17.422 Y10.388
Y10.344
Y10.297
X-17.421 Y9.31
X-17.419 Y9.264
X-17.416 Y9.217
X-17.412 Y9.178
X-17.356 Y9.183 Z-0.094 F1000
G0 Z1.1
X-17.388 Y10.129
Z1
G1 Z0.5 F1000
G3 X-17.176 Y10.311 Z0.423 I0.106 J0.091 F100
X-17.388 Y10.129 Z0.345 I-0.106 J-0.091
X-17.176 Y10.311 Z0.268 I0.106 J0.091
X-17.388 Y10.129 Z0.191 I-0.106 J-0.091
X-17.176 Y10.311 Z0.114 I0.106 J0.091
X-17.388 Y10.129 Z0.036 I-0.106 J-0.091
X-17.176 Y10.311 Z-0.041 I0.106 J0.091
X-17.421 Y10.224 Z-0.1 I-0.106 J-0.091
X-17.253 Y10.219 I0.084 J-0.002
G2 X-17.165 Y10.711 I1.678 J-0.048
X-16.878 Y11.121 I0.845 J-0.287
X-16.504 Y11.289 I0.513 J-0.641
X-16.095 Y11.288 I0.202 J-1.166
X-15.6 Y10.976 I-0.136 J-0.764
X-15.396 Y10.428 I-0.911 J-0.652
G1 X-15.384 Y9.266
G2 X-15.496 Y8.763 I-1.151 J-0.007
X-15.857 Y8.395 I-0.717 J0.342
X-16.212 Y8.302 I-0.396 J0.788
X-16.577 Y8.329 I-0.071 J1.532
X-16.859 Y8.439 I0.161 J0.821
X-17.075 Y8.65 I0.375 J0.603
X-17.187 Y8.881 I0.792 J0.525
X-17.244 Y9.132 I1.336 J0.434
X-17.252 Y9.241 I0.992 J0.131
X-17.254 Y9.351 I5.079 J0.11
G3 X-17.257 Y9.785 I-30.663
G2 X-17.253 Y10.219 I10.102 J0.143
X-17.195 Y10.302 I0.091 J-0.003
G3 X-17.133 Y10.382 I-0.034 J0.091
G1 X-17.129 Y10.418
X-17.119 Y10.483
X-17.106 Y10.545
X-17.09 Y10.605
X-17.072 Y10.663
X-17.05 Y10.719
X-17.025 Y10.772
G2 X-17.02 Y10.781 I0.136 J-0.064
G1 X-16.997 Y10.823
G2 X-16.992 Y10.832 I0.131 J-0.073
G1 X-16.966 Y10.871
G2 X-16.959 Y10.88 I0.125 J-0.082
G1 X-16.931 Y10.916
G2 X-16.924 Y10.926 I0.119 J-0.092
G1 X-16.893 Y10.959
G2 X-16.885 Y10.967 I0.111 J-0.101
G1 X-16.852 Y10.998
G2 X-16.843 Y11.006 I0.103 J-0.109
G1 X-16.808 Y11.034
G2 X-16.799 Y11.041 I0.094 J-0.117
G1 X-16.761 Y11.067
G2 X-16.751 Y11.073 I0.084 J-0.124
G1 X-16.712 Y11.095
G2 X-16.701 Y11.101 I0.074 J-0.13
G1 X-16.659 Y11.121
G2 X-16.649 Y11.125 I0.064 J-0.136
G1 X-16.605 Y11.142
G2 X-16.595 Y11.146 I0.054 J-0.14
G1 X-16.548 Y11.16
X-16.489 Y11.175
X-16.429 Y11.186
X-16.367 Y11.194
X-16.302 Y11.198
G2 X-16.284 I0.01 J-0.15
G1 X-16.231 Y11.195
X-16.172 Y11.189
X-16.114 Y11.179
X-16.059 Y11.165
G2 X-16.049 Y11.163 I-0.036 J-0.146
G1 X-16.005 Y11.148
G2 X-15.994 Y11.145 I-0.046 J-0.143
G1 X-15.953 Y11.128
G2 X-15.942 Y11.123 I-0.056 J-0.139
G1 X-15.903 Y11.103
G2 X-15.892 Y11.098 I-0.067 J-0.134
G1 X-15.855 Y11.075
G2 X-15.845 Y11.068 I-0.077 J-0.128
G1 X-15.81 Y11.043
G2 X-15.8 Y11.036 I-0.088 J-0.121
G1 X-15.768 Y11.008
G2 X-15.758 Y10.999 I-0.098 J-0.114
G1 X-15.728 Y10.968
G2 X-15.72 Y10.96 I-0.107 J-0.105
G1 X-15.692 Y10.926
G2 X-15.685 Y10.916 I-0.115 J-0.097
G1 X-15.659 Y10.88
G2 X-15.653 Y10.871 I-0.122 J-0.087
G1 X-15.629 Y10.832
G2 X-15.624 Y10.823 I-0.128 J-0.078
G1 X-15.603 Y10.781
G2 X-15.598 Y10.772 I-0.134 J-0.068
G1 X-15.579 Y10.727
X-15.559 Y10.671
X-15.542 Y10.612
X-15.527 Y10.552
X-15.516 Y10.489
X-15.507 Y10.423
X-15.5 Y10.356
X-15.497 Y10.286
X-15.495 Y10.214
Y9.327
Y9.265
X-15.497 Y9.199
X-15.502 Y9.135
X-15.51 Y9.074
X-15.52 Y9.015
X-15.534 Y8.957
X-15.551 Y8.902
G2 X-15.554 Y8.892 I-0.143 J0.044
G1 X-15.571 Y8.848
G2 X-15.575 Y8.838 I-0.14 J0.054
G1 X-15.595 Y8.797
G2 X-15.6 Y8.787 I-0.136 J0.064
G1 X-15.622 Y8.749
G2 X-15.628 Y8.738 I-0.13 J0.074
G1 X-15.652 Y8.703
G2 X-15.66 Y8.693 I-0.124 J0.084
G1 X-15.686 Y8.66
G2 X-15.695 Y8.65 I-0.117 J0.094
G1 X-15.724 Y8.62
G2 X-15.734 Y8.611 I-0.108 J0.104
G1 X-15.765 Y8.583
G2 X-15.775 Y8.575 I-0.099 J0.113
G1 X-15.809 Y8.55
G2 X-15.82 Y8.543 I-0.089 J0.121
G1 X-15.856 Y8.52
G2 X-15.867 Y8.514 I-0.079 J0.128
G1 X-15.906 Y8.494
G2 X-15.916 Y8.489 I-0.068 J0.134
G1 X-15.958 Y8.472
G2 X-15.968 Y8.468 I-0.058 J0.139
G1 X-16.012 Y8.454
G2 X-16.022 Y8.451 I-0.047 J0.142
G1 X-16.069 Y8.439
X-16.127 Y8.427
X-16.187 Y8.419
X-16.249 Y8.415
X-16.313 Y8.413
X-16.376 Y8.414
X-16.438 Y8.419
X-16.498 Y8.426
X-16.556 Y8.438
X-16.612 Y8.452
G2 X-16.622 Y8.455 I0.038 J0.145
G1 X-16.666 Y8.47
G2 X-16.677 Y8.474 I0.048 J0.142
G1 X-16.718 Y8.492
G2 X-16.729 Y8.497 I0.059 J0.138
G1 X-16.768 Y8.517
G2 X-16.779 Y8.524 I0.07 J0.133
G1 X-16.816 Y8.547
G2 X-16.826 Y8.554 I0.08 J0.127
G1 X-16.86 Y8.58
G2 X-16.87 Y8.588 I0.091 J0.12
G1 X-16.902 Y8.617
G2 X-16.911 Y8.626 I0.101 J0.111
G1 X-16.94 Y8.657
G2 X-16.949 Y8.667 I0.11 J0.102
G1 X-16.976 Y8.701
G2 X-16.983 Y8.711 I0.118 J0.093
G1 X-17.007 Y8.748
G2 X-17.014 Y8.758 I0.125 J0.083
G1 X-17.036 Y8.798
G2 X-17.041 Y8.808 I0.131 J0.073
G1 X-17.06 Y8.85
G2 X-17.064 Y8.86 I0.136 J0.063
G1 X-17.081 Y8.905
X-17.099 Y8.962
X-17.114 Y9.022
X-17.125 Y9.083
X-17.134 Y9.147
X-17.14 Y9.213
X-17.142 Y9.281
X-17.143 Y9.351
Y10.212
X-17.141 Y10.282
X-17.136 Y10.351
X-17.133 Y10.382
X-17.189 Y10.388 Z-0.094 F1000
G0 Z2.3
X-13.844 Y9.897
Z1
G1 Z0.5 F1000
G3 X-13.98 Y9.76 Z0.447 I-0.068 J-0.068 F100
X-13.844 Y9.897 Z0.393 I0.068 J0.068
X-13.98 Y9.76 Z0.34 I-0.068 J-0.068
X-13.844 Y9.897 Z0.286 I0.068 J0.068
X-13.98 Y9.76 Z0.233 I-0.068 J-0.068
X-13.844 Y9.897 Z0.179 I0.068 J0.068
X-13.98 Y9.76 Z0.126 I-0.068 J-0.068
X-13.844 Y9.897 Z0.072 I0.068 J0.068
X-13.98 Y9.76 Z0.019 I-0.068 J-0.068
X-13.844 Y9.897 Z-0.035 I0.068 J0.068
X-13.98 Y9.76 Z-0.088 I-0.068 J-0.068
X-13.921 Y9.732 Z-0.1 I0.068 J0.068
G1 X-13.891 Y9.729
X-13.845 Y9.728
X-13.794 Y9.727
X-13.745 Y9.725
X-13.697 Y9.723
X-13.652 Y9.721
X-13.608 Y9.718
X-13.566 Y9.715
X-13.525 Y9.712
X-13.487 Y9.708
X-13.45 Y9.703
X-13.414 Y9.699
X-13.381 Y9.694
X-13.348 Y9.688
X-13.318 Y9.682
X-13.289 Y9.676
X-13.261 Y9.668
X-13.234 Y9.661
X-13.208 Y9.652
X-13.184 Y9.642
X-13.16 Y9.632
G2 X-13.151 Y9.627 I-0.064 J-0.136
G1 X-13.137 Y9.619
G2 X-13.127 Y9.613 I-0.073 J-0.131
G1 X-13.114 Y9.605
G2 X-13.102 Y9.595 I-0.083 J-0.125
G1 X-13.092 Y9.587
G2 X-13.078 Y9.574 I-0.096 J-0.115
G1 X-13.057 Y9.556
X-13.041 Y9.541
X-13.024 Y9.524
X-13.009 Y9.507
X-12.995 Y9.488
X-12.982 Y9.469
X-12.97 Y9.45
X-12.958 Y9.43
X-12.948 Y9.409
X-12.938 Y9.387
X-12.93 Y9.366
X-12.922 Y9.344
X-12.916 Y9.321
X-12.91 Y9.298
X-12.905 Y9.275
X-12.901 Y9.251
X-12.898 Y9.227
X-12.895 Y9.203
X-12.893 Y9.179
X-12.892 Y9.154
Y9.128
Y9.103
X-12.893 Y9.076
X-12.895 Y9.055
X-12.897 Y9.029
X-12.9 Y9.004
X-12.904 Y8.979
X-12.909 Y8.954
X-12.915 Y8.93
X-12.922 Y8.906
X-12.93 Y8.882
X-12.939 Y8.857
X-12.948 Y8.835
X-12.959 Y8.811
X-12.971 Y8.789
X-12.982 Y8.767
X-12.996 Y8.745
X-13.01 Y8.723
X-13.025 Y8.702
X-13.04 Y8.682
X-13.057 Y8.661
X-13.074 Y8.642
X-13.092 Y8.623
X-13.11 Y8.604
X-13.13 Y8.586
X-13.149 Y8.568
X-13.17 Y8.55
X-13.19 Y8.535
X-13.207 Y8.522
X-13.226 Y8.51
X-13.244 Y8.498
X-13.264 Y8.486
X-13.283 Y8.475
X-13.303 Y8.465
X-13.323 Y8.455
X-13.344 Y8.446
X-13.365 Y8.437
X-13.386 Y8.429
X-13.408 Y8.421
X-13.43 Y8.414
X-13.452 Y8.408
X-13.475 Y8.401
X-13.497 Y8.396
X-13.521 Y8.391
X-13.544 Y8.386
X-13.568 Y8.382
X-13.592 Y8.379
X-13.616 Y8.376
X-13.64 Y8.373
X-13.665 Y8.371
X-13.69 Y8.369
X-13.718
X-13.743 Y8.368
X-13.768
X-13.793 Y8.369
X-13.818 Y8.37
X-13.842 Y8.372
X-13.867 Y8.374
X-13.891 Y8.376
X-13.915 Y8.379
X-13.938 Y8.383
X-13.962 Y8.387
X-13.986 Y8.391
X-14.009 Y8.396
X-14.032 Y8.401
X-14.055 Y8.407
X-14.077 Y8.413
X-14.1 Y8.42
X-14.123 Y8.428
X-14.144 Y8.435
X-14.167 Y8.444
X-14.188 Y8.452
X-14.209 Y8.461
X-14.231 Y8.471
X-14.25 Y8.481
X-14.259 Y8.485
X-14.272 Y8.491
X-14.285 Y8.497
X-14.297 Y8.503
X-14.31 Y8.51
X-14.322 Y8.516
X-14.334 Y8.523
X-14.346 Y8.531
X-14.358 Y8.538
X-14.369 Y8.545
X-14.381 Y8.553
X-14.392 Y8.561
X-14.404 Y8.569
X-14.415 Y8.577
X-14.426 Y8.585
X-14.437 Y8.593
X-14.448 Y8.602
X-14.458 Y8.611
X-14.469 Y8.62
X-14.479 Y8.629
X-14.488 Y8.638
X-14.499 Y8.648
X-14.508 Y8.658
X-14.597 Y8.703
X-14.683 Y8.657
X-14.723 Y8.563
X-14.702 Y8.496
X-14.697 Y8.487
X-14.691 Y8.478
X-14.685 Y8.47
X-14.679 Y8.461
X-14.673 Y8.453
X-14.665 Y8.444
X-14.658 Y8.435
X-14.65 Y8.427
X-14.642 Y8.418
X-14.634 Y8.409
X-14.625 Y8.401
X-14.615 Y8.392
X-14.606 Y8.384
X-14.595 Y8.375
X-14.584 Y8.367
X-14.573 Y8.358
X-14.562 Y8.35
X-14.55 Y8.342
X-14.537 Y8.333
X-14.525 Y8.325
X-14.513 Y8.318
X-14.499 Y8.31
X-14.485 Y8.302
X-14.471 Y8.294
X-14.458 Y8.287
X-14.445 Y8.28
X-14.432 Y8.273
X-14.42 Y8.266
X-14.407 Y8.26
X-14.395 Y8.255
X-14.384 Y8.249
X-14.372 Y8.244
X-14.361 Y8.239
X-14.35 Y8.234
X-14.339 Y8.23
X-14.328 Y8.226
X-14.318 Y8.222
X-14.309 Y8.219
X-14.299 Y8.215
X-14.233 Y8.198
X-14.213 Y8.194
X-14.193 Y8.19
X-14.172 Y8.186
X-14.151 Y8.182
X-14.13 Y8.179
X-14.108 Y8.176
X-14.086 Y8.173
X-14.063 Y8.17
X-14.041 Y8.168
X-14.018 Y8.166
X-13.994 Y8.164
X-13.971 Y8.162
X-13.947 Y8.161
X-13.922 Y8.16
X-13.898 Y8.159
X-13.873
X-13.847
X-13.822
X-13.796
X-13.769 Y8.16
X-13.743
X-13.716 Y8.162
X-13.688 Y8.163
X-13.646 Y8.165
X-13.607 Y8.168
X-13.569 Y8.171
X-13.532 Y8.176
X-13.496 Y8.181
X-13.46 Y8.187
X-13.426 Y8.193
X-13.392 Y8.201
X-13.359 Y8.209
X-13.327 Y8.218
X-13.296 Y8.228
X-13.266 Y8.238
X-13.236 Y8.249
X-13.207 Y8.261
X-13.179 Y8.274
X-13.152 Y8.287
X-13.126 Y8.301
X-13.1 Y8.316
X-13.075 Y8.332
X-13.05 Y8.348
X-13.027 Y8.365
X-13.004 Y8.383
X-12.981 Y8.401
X-12.958 Y8.422
X-12.934 Y8.443
X-12.913 Y8.464
X-12.892 Y8.485
X-12.873 Y8.507
X-12.854 Y8.529
X-12.836 Y8.552
X-12.819 Y8.576
X-12.803 Y8.6
X-12.788 Y8.625
X-12.773 Y8.65
X-12.76 Y8.677
X-12.747 Y8.704
X-12.735 Y8.732
X-12.724 Y8.76
X-12.713 Y8.79
X-12.704 Y8.82
X-12.695 Y8.851
X-12.687 Y8.883
X-12.68 Y8.915
X-12.674 Y8.949
X-12.669 Y8.983
X-12.664 Y9.019
X-12.66 Y9.055
X-12.658 Y9.088
Y9.131
X-12.659 Y9.175
X-12.662 Y9.218
X-12.665 Y9.26
X-12.669 Y9.299
X-12.674 Y9.337
X-12.68 Y9.374
X-12.688 Y9.409
X-12.696 Y9.442
X-12.704 Y9.474
X-12.714 Y9.504
X-12.724 Y9.532
X-12.736 Y9.559
X-12.748 Y9.584
X-12.76 Y9.608
X-12.773 Y9.63
X-12.787 Y9.651
X-12.802 Y9.671
X-12.817 Y9.689
X-12.833 Y9.706
X-12.85 Y9.722
X-12.867 Y9.737
X-12.886 Y9.751
X-12.908 Y9.767
X-12.932 Y9.784
X-12.947 Y9.794
X-12.963 Y9.805
X-12.98 Y9.814
X-12.998 Y9.824
X-13.017 Y9.833
X-13.037 Y9.842
X-13.057 Y9.85
X-13.079 Y9.858
X-13.102 Y9.865
X-13.125 Y9.872
X-13.15 Y9.879
X-13.176 Y9.885
X-13.202 Y9.891
X-13.23 Y9.896
X-13.259 Y9.9
X-13.288 Y9.904
X-13.319 Y9.908
X-13.351 Y9.91
X-13.383 Y9.913
X-13.417 Y9.914
X-13.451 Y9.915
X-13.487 Y9.916
X-13.522
X-13.561 Y9.915
X-13.602 Y9.914
X-13.643 Y9.913
X-13.681
X-13.719 Y9.914
X-13.756
X-13.791 Y9.916
X-13.826 Y9.918
X-13.859 Y9.92
X-13.891 Y9.923
X-13.922 Y9.927
X-13.952 Y9.931
X-13.981 Y9.935
X-14.01 Y9.941
X-14.037 Y9.946
X-14.063 Y9.953
X-14.088 Y9.96
X-14.113 Y9.968
X-14.137 Y9.977
X-14.16 Y9.987
X-14.184 Y9.999
X-14.206 Y10.012
X-14.226 Y10.026
G2 X-14.236 Y10.033 I0.085 J0.124
G1 X-14.263 Y10.053
X-14.278 Y10.065
X-14.295 Y10.081
X-14.31 Y10.096
X-14.324 Y10.112
X-14.337 Y10.129
X-14.35 Y10.146
X-14.361 Y10.164
X-14.372 Y10.182
X-14.383 Y10.202
X-14.393 Y10.221
X-14.401 Y10.24
X-14.41 Y10.262
X-14.418 Y10.282
X-14.426 Y10.304
X-14.433 Y10.326
X-14.439 Y10.348
X-14.446 Y10.371
X-14.451 Y10.394
X-14.457 Y10.419
X-14.462 Y10.443
X-14.466 Y10.468
X-14.471 Y10.494
G2 X-14.472 Y10.517 I0.148 J0.024
G1 X-14.473 Y10.536
X-14.472 Y10.558
X-14.471 Y10.581
X-14.469 Y10.603
X-14.467 Y10.625
X-14.464 Y10.648
X-14.46 Y10.67
X-14.456 Y10.691
X-14.451 Y10.714
X-14.445 Y10.735
X-14.439 Y10.755
X-14.431 Y10.778
X-14.424 Y10.797
X-14.415 Y10.818
X-14.407 Y10.838
X-14.396 Y10.859
X-14.386 Y10.878
X-14.375 Y10.898
X-14.364 Y10.917
X-14.351 Y10.936
X-14.339 Y10.955
X-14.325 Y10.973
X-14.311 Y10.991
X-14.296 Y11.009
G2 X-14.283 Y11.023 I0.115 J-0.096
G1 X-14.268 Y11.037
X-14.247 Y11.054
X-14.227 Y11.07
X-14.206 Y11.085
X-14.184 Y11.099
X-14.162 Y11.114
X-14.139 Y11.127
X-14.115 Y11.139
X-14.092 Y11.151
X-14.066 Y11.162
X-14.042 Y11.172
X-14.016 Y11.182
X-13.99 Y11.191
X-13.963 Y11.199
X-13.936 Y11.206
X-13.909 Y11.213
X-13.88 Y11.22
X-13.852 Y11.225
X-13.823 Y11.23
X-13.793 Y11.235
X-13.763 Y11.239
X-13.733 Y11.242
X-13.702 Y11.245
X-13.671 Y11.247
X-13.638
X-13.613
X-13.588
X-13.563 Y11.246
X-13.539 Y11.245
X-13.514 Y11.243
X-13.492 Y11.241
X-13.467 Y11.239
X-13.445 Y11.236
X-13.421 Y11.233
X-13.398 Y11.229
X-13.376 Y11.225
X-13.355 Y11.221
X-13.333 Y11.216
X-13.311 Y11.211
X-13.29 Y11.205
X-13.27 Y11.199
X-13.249 Y11.192
X-13.229 Y11.185
X-13.21 Y11.177
X-13.19 Y11.17
X-13.172 Y11.161
X-13.152 Y11.152
X-13.134 Y11.142
G2 X-13.123 Y11.136 I-0.07 J-0.133
G1 X-13.112 Y11.129
X-13.1 Y11.121
X-13.089 Y11.113
X-13.077 Y11.105
X-13.065 Y11.096
X-13.055 Y11.088
X-13.043 Y11.078
X-13.033 Y11.07
X-13.022 Y11.061
X-13.011 Y11.051
X-13.001 Y11.042
X-12.991 Y11.033
X-12.98 Y11.023
X-12.971 Y11.014
X-12.961 Y11.003
X-12.951 Y10.993
X-12.942 Y10.983
X-12.933 Y10.972
X-12.924 Y10.962
X-12.915 Y10.951
X-12.906 Y10.94
X-12.898 Y10.929
X-12.89 Y10.918
X-12.799 Y10.882
X-12.712 Y10.926
X-12.7 Y11.025
X-12.702 Y11.045
X-12.706 Y11.065
X-12.719 Y11.092
X-12.726 Y11.103
X-12.733 Y11.113
X-12.74 Y11.124
X-12.748 Y11.134
X-12.755 Y11.144
X-12.764 Y11.154
X-12.772 Y11.163
X-12.78 Y11.172
X-12.789 Y11.182
X-12.798 Y11.191
X-12.807 Y11.2
X-12.817 Y11.208
X-12.827 Y11.216
X-12.837 Y11.225
X-12.847 Y11.233
X-12.858 Y11.24
X-12.869 Y11.248
X-12.88 Y11.256
X-12.892 Y11.263
X-12.904 Y11.27
X-12.918 Y11.278
X-12.944 Y11.294
X-12.963 Y11.305
X-12.983 Y11.315
X-13.004 Y11.326
X-13.026 Y11.335
X-13.05 Y11.345
X-13.075 Y11.354
X-13.101 Y11.363
X-13.128 Y11.371
X-13.157 Y11.379
X-13.186 Y11.386
X-13.217 Y11.393
X-13.25 Y11.399
X-13.283 Y11.405
X-13.317 Y11.41
X-13.353 Y11.415
X-13.39 Y11.419
X-13.428 Y11.423
X-13.467 Y11.426
X-13.507 Y11.429
X-13.549 Y11.431
X-13.592 Y11.432
X-13.635 Y11.433
X-13.68
X-13.72
X-13.758 Y11.432
X-13.796 Y11.43
X-13.833 Y11.427
X-13.869 Y11.423
X-13.904 Y11.418
X-13.938 Y11.413
X-13.972 Y11.407
X-14.005 Y11.4
X-14.037 Y11.392
X-14.068 Y11.383
X-14.099 Y11.374
X-14.129 Y11.364
X-14.157 Y11.353
X-14.186 Y11.341
X-14.213 Y11.329
X-14.24 Y11.316
X-14.266 Y11.302
X-14.292 Y11.287
X-14.317 Y11.272
X-14.341 Y11.256
X-14.364 Y11.239
X-14.387 Y11.221
X-14.409 Y11.203
X-14.43 Y11.183
X-14.451 Y11.163
X-14.47 Y11.142
X-14.489 Y11.12
X-14.507 Y11.097
X-14.524 Y11.074
X-14.539 Y11.05
X-14.554 Y11.025
X-14.568 Y10.999
X-14.582 Y10.972
X-14.594 Y10.945
X-14.605 Y10.916
X-14.616 Y10.887
X-14.625 Y10.857
X-14.634 Y10.825
X-14.642 Y10.793
X-14.649 Y10.76
X-14.655 Y10.725
X-14.659 Y10.69
X-14.663 Y10.653
X-14.666 Y10.615
X-14.668 Y10.577
X-14.669 Y10.537
Y10.495
Y10.467
X-14.668 Y10.444
X-14.667 Y10.42
X-14.665 Y10.397
X-14.663 Y10.374
X-14.66 Y10.352
X-14.656 Y10.331
X-14.652 Y10.309
X-14.647 Y10.288
X-14.642 Y10.268
X-14.636 Y10.248
X-14.629 Y10.228
X-14.622 Y10.208
X-14.615 Y10.189
X-14.606 Y10.17
X-14.598 Y10.152
X-14.588 Y10.134
X-14.578 Y10.116
X-14.568 Y10.098
X-14.556 Y10.08
X-14.545 Y10.063
X-14.532 Y10.046
X-14.519 Y10.029
X-14.505 Y10.012
X-14.487 Y9.991
X-14.469 Y9.972
X-14.45 Y9.953
X-14.431 Y9.935
X-14.411 Y9.918
X-14.39 Y9.902
X-14.369 Y9.886
X-14.347 Y9.871
X-14.324 Y9.857
X-14.301 Y9.844
X-14.277 Y9.831
X-14.252 Y9.819
X-14.226 Y9.807
X-14.2 Y9.797
X-14.172 Y9.786
X-14.144 Y9.777
X-14.115 Y9.769
X-14.085 Y9.761
X-14.054 Y9.753
X-14.023 Y9.747
X-13.99 Y9.741
X-13.957 Y9.736
X-13.922 Y9.732
X-13.921
X-13.916 Y9.789 Z-0.094 F1000
G0 Z2.3
X-11.748 Y9.842
Z1
G1 Z0.5 F1000
G3 X-12.018 Y9.75 Z0.421 I-0.135 J-0.046 F100
X-11.748 Y9.842 Z0.342 I0.135 J0.046
X-12.018 Y9.75 Z0.263 I-0.135 J-0.046
X-11.748 Y9.842 Z0.184 I0.135 J0.046
X-12.018 Y9.75 Z0.105 I-0.135 J-0.046
X-11.748 Y9.842 Z0.026 I0.135 J0.046
X-12.018 Y9.75 Z-0.053 I-0.135 J-0.046
X-11.797 Y9.682 Z-0.1 I0.135 J0.046
X-11.78 Y9.805 I-0.053 J0.07
X-11.903 Y9.822 I-0.07 J-0.053
X-11.863 Y9.77 I0.02 J-0.026
X-11.903 Y9.822 I-0.02 J0.026
X-11.983 Y9.654 I0.12 J-0.16
G1 X-11.925 Y8.321
G3 X-11.882 I0.022
X-11.925 I-0.022
G1 X-11.903 Z-0.098 F1000
Z0.5
X-11.946 Y11.139 F100
G3 X-11.858 Y11.409 Z0.421 I0.044 J0.135
X-11.946 Y11.139 Z0.342 I-0.044 J-0.135
X-11.858 Y11.409 Z0.263 I0.044 J0.135
X-11.946 Y11.139 Z0.184 I-0.044 J-0.135
X-11.858 Y11.409 Z0.105 I0.044 J0.135
X-11.946 Y11.139 Z0.026 I-0.044 J-0.135
X-11.858 Y11.409 Z-0.053 I0.044 J0.135
X-12.045 Y11.274 Z-0.1 I-0.044 J-0.135
X-11.879 I0.083
X-11.925 I-0.023
X-11.879 I0.023
G2 X-11.621 Y11.342 I0.139 J-0.001
G3 X-11.389 Y11.208 I0.232 J0.133
G1 X-10.194
X-10.105 Y11.252
X-10.083 Y11.35
X-10.14 Y11.43
X-11.957 Y11.443
X-12.046 Y11.4
X-12.071 Y8.273
X-12.031 Y8.181
X-10.199 Y8.153
X-10.11 Y8.197
X-10.087 Y8.293
X-10.146 Y8.372
X-11.667 Y8.384
G2 X-11.817 Y8.534 J0.15
G1 Y9.536
G2 X-11.667 Y9.686 I0.15
G1 X-10.824
X-10.735 Y9.724
X-10.72 Y9.821
X-10.779 Y9.898
X-11.667 Y9.906
G2 X-11.817 Y10.056 J0.15
G1 Y11.058
G2 X-11.667 Y11.208 I0.15
G1 X-11.389
Y11.265 Z-0.094 F1000
G0 Z2.3
X-12.787 Y4.411
Z1
G1 Z0.5 F1000
G3 X-12.887 Y4.181 Z0.43 I-0.05 J-0.115 F100
X-12.787 Y4.411 Z0.361 I0.05 J0.115
X-12.887 Y4.181 Z0.291 I-0.05 J-0.115
X-12.787 Y4.411 Z0.222 I0.05 J0.115
X-12.887 Y4.181 Z0.152 I-0.05 J-0.115
X-12.787 Y4.411 Z0.083 I0.05 J0.115
X-12.887 Y4.181 Z0.013 I-0.05 J-0.115
X-12.787 Y4.411 Z-0.056 I0.05 J0.115
X-12.962 Y4.296 Z-0.1 I-0.05 J-0.115
G1 Y3.439
X-12.96 Y3.394
X-12.957 Y3.35
X-12.953 Y3.306
X-12.948 Y3.263
X-12.941 Y3.222
X-12.934 Y3.181
X-12.925 Y3.141
X-12.916 Y3.102
X-12.905 Y3.065
X-12.893 Y3.027
X-12.881 Y2.991
X-12.867 Y2.956
X-12.852 Y2.922
X-12.836 Y2.888
X-12.82 Y2.855
X-12.802 Y2.823
X-12.783 Y2.792
X-12.763 Y2.762
X-12.742 Y2.732
X-12.72 Y2.703
X-12.696 Y2.675
X-12.672 Y2.648
X-12.647 Y2.621
X-12.62 Y2.595
X-12.598 Y2.575
X-12.575 Y2.556
X-12.552 Y2.537
X-12.528 Y2.519
X-12.503 Y2.503
X-12.478 Y2.487
X-12.452 Y2.472
X-12.425 Y2.457
X-12.398 Y2.444
X-12.37 Y2.431
X-12.341 Y2.42
X-12.311 Y2.409
X-12.281 Y2.399
X-12.25 Y2.389
X-12.218 Y2.381
X-12.185 Y2.373
X-12.152 Y2.367
X-12.118 Y2.361
X-12.083 Y2.356
X-12.047 Y2.352
X-12.01 Y2.348
X-11.972 Y2.346
X-11.934 Y2.345
X-11.895 Y2.344
X-11.862 Y2.345
X-11.831 Y2.346
X-11.799 Y2.348
X-11.768 Y2.351
X-11.738 Y2.354
X-11.708 Y2.359
X-11.678 Y2.364
X-11.649 Y2.37
X-11.621 Y2.376
X-11.592 Y2.384
X-11.565 Y2.392
X-11.537 Y2.401
X-11.51 Y2.411
X-11.483 Y2.421
X-11.457 Y2.433
X-11.431 Y2.445
X-11.405 Y2.457
X-11.38 Y2.471
X-11.355 Y2.486
X-11.33 Y2.501
X-11.306 Y2.517
X-11.282 Y2.534
X-11.258 Y2.551
X-11.236 Y2.569
X-11.21 Y2.592
X-11.184 Y2.615
X-11.16 Y2.64
X-11.137 Y2.665
X-11.115 Y2.691
X-11.094 Y2.717
X-11.074 Y2.744
X-11.055 Y2.771
X-11.037 Y2.8
X-11.021 Y2.828
X-11.005 Y2.858
X-10.99 Y2.889
X-10.977 Y2.92
X-10.964 Y2.952
X-10.953 Y2.985
X-10.942 Y3.018
X-10.933 Y3.053
X-10.924 Y3.088
X-10.917 Y3.125
X-10.911 Y3.162
X-10.905 Y3.2
X-10.901 Y3.239
X-10.898 Y3.279
X-10.896 Y3.318
Y4.44
X-10.895 Y4.482
Y4.517
X-10.897 Y4.551
X-10.899 Y4.585
X-10.903 Y4.619
X-10.908 Y4.651
X-10.914 Y4.684
X-10.921 Y4.716
X-10.929 Y4.748
X-10.939 Y4.78
X-10.95 Y4.811
X-10.962 Y4.841
X-10.975 Y4.872
X-10.989 Y4.903
X-11.005 Y4.933
X-11.022 Y4.963
X-11.04 Y4.992
X-11.059 Y5.022
X-11.08 Y5.051
X-11.102 Y5.08
X-11.126 Y5.109
X-11.151 Y5.138
X-11.177 Y5.167
X-11.204 Y5.195
X-11.228 Y5.218
X-11.252 Y5.24
X-11.277 Y5.261
X-11.302 Y5.28
X-11.327 Y5.299
X-11.353 Y5.317
X-11.379 Y5.333
X-11.406 Y5.349
X-11.433 Y5.363
X-11.46 Y5.377
X-11.488 Y5.389
X-11.516 Y5.401
X-11.545 Y5.411
X-11.575 Y5.421
X-11.605 Y5.429
X-11.636 Y5.437
X-11.667 Y5.443
X-11.699 Y5.449
X-11.732 Y5.454
X-11.765 Y5.457
X-11.799 Y5.46
X-11.833 Y5.461
X-11.868 Y5.462
X-11.906 Y5.461
X-11.946 Y5.462
X-11.978
X-12.009 Y5.461
X-12.04 Y5.458
X-12.071 Y5.455
X-12.102 Y5.45
X-12.133 Y5.444
X-12.163 Y5.438
X-12.194 Y5.43
X-12.225 Y5.421
X-12.256 Y5.411
X-12.287 Y5.399
X-12.318 Y5.387
X-12.348 Y5.374
X-12.379 Y5.359
X-12.41 Y5.343
X-12.441 Y5.326
X-12.472 Y5.308
X-12.503 Y5.288
X-12.534 Y5.268
X-12.566 Y5.246
X-12.597 Y5.223
X-12.628 Y5.198
X-12.656 Y5.175
X-12.681 Y5.151
X-12.706 Y5.125
X-12.73 Y5.099
X-12.753 Y5.071
X-12.775 Y5.043
X-12.795 Y5.015
X-12.814 Y4.986
X-12.832 Y4.956
X-12.849 Y4.926
X-12.865 Y4.895
X-12.879 Y4.863
X-12.893 Y4.831
X-12.905 Y4.798
X-12.916 Y4.764
X-12.926 Y4.729
X-12.935 Y4.694
X-12.942 Y4.658
X-12.949 Y4.621
X-12.954 Y4.583
X-12.958 Y4.544
X-12.961 Y4.504
X-12.963 Y4.464
Y4.422
X-12.962 Y4.378
Y4.296
X-12.905 Z-0.094 F1000
G0 Z1.1
X-12.889 Y4.19
Z1
G1 Z0.5 F1000
G3 X-12.785 Y4.419 Z0.43 I0.052 J0.114 F100
X-12.889 Y4.19 Z0.361 I-0.052 J-0.114
X-12.785 Y4.419 Z0.291 I0.052 J0.114
X-12.889 Y4.19 Z0.222 I-0.052 J-0.114
X-12.785 Y4.419 Z0.152 I0.052 J0.114
X-12.889 Y4.19 Z0.083 I-0.052 J-0.114
X-12.785 Y4.419 Z0.013 I0.052 J0.114
X-12.889 Y4.19 Z-0.056 I-0.052 J-0.114
X-12.711 Y4.301 Z-0.1 I0.052 J0.114
G1 X-12.709 Y4.364
X-12.705 Y4.43
X-12.698 Y4.494
X-12.689 Y4.555
X-12.676 Y4.615
X-12.661 Y4.673
X-12.643 Y4.728
X-12.623 Y4.781
X-12.599 Y4.833
G2 X-12.594 Y4.842 I0.136 J-0.064
G1 X-12.572 Y4.882
G2 X-12.566 Y4.891 I0.131 J-0.073
G1 X-12.542 Y4.928
G2 X-12.535 Y4.937 I0.125 J-0.083
G1 X-12.509 Y4.972
G2 X-12.501 Y4.981 I0.119 J-0.092
G1 X-12.472 Y5.012
G2 X-12.464 Y5.021 I0.111 J-0.101
G1 X-12.433 Y5.05
G2 X-12.424 Y5.058 I0.103 J-0.109
G1 X-12.39 Y5.085
G2 X-12.381 Y5.092 I0.094 J-0.117
G1 X-12.345 Y5.116
G2 X-12.335 Y5.122 I0.084 J-0.124
G1 X-12.297 Y5.144
G2 X-12.287 Y5.149 I0.074 J-0.13
G1 X-12.247 Y5.168
G2 X-12.237 Y5.172 I0.064 J-0.136
G1 X-12.195 Y5.189
G2 X-12.185 Y5.192 I0.054 J-0.14
G1 X-12.14 Y5.206
X-12.084 Y5.22
X-12.026 Y5.231
X-11.966 Y5.238
X-11.905 Y5.242
G2 X-11.886 Y5.243 I0.01 J-0.15
G1 X-11.836 Y5.24
X-11.779 Y5.233
X-11.724 Y5.224
X-11.671 Y5.211
G2 X-11.66 Y5.208 I-0.036 J-0.146
G1 X-11.619 Y5.195
G2 X-11.608 Y5.191 I-0.046 J-0.143
G1 X-11.569 Y5.175
G2 X-11.558 Y5.17 I-0.056 J-0.139
G1 X-11.521 Y5.152
G2 X-11.51 Y5.146 I-0.067 J-0.134
G1 X-11.475 Y5.124
G2 X-11.465 Y5.118 I-0.078 J-0.128
G1 X-11.432 Y5.094
G2 X-11.422 Y5.086 I-0.088 J-0.122
G1 X-11.391 Y5.059
G2 X-11.381 Y5.051 I-0.098 J-0.114
G1 X-11.353 Y5.022
G2 X-11.345 Y5.013 I-0.107 J-0.105
G1 X-11.318 Y4.981
G2 X-11.31 Y4.971 I-0.115 J-0.097
G1 X-11.286 Y4.937
G2 X-11.28 Y4.928 I-0.122 J-0.087
G1 X-11.257 Y4.891
G2 X-11.252 Y4.881 I-0.128 J-0.078
G1 X-11.232 Y4.841
X-11.209 Y4.79
X-11.19 Y4.736
X-11.173 Y4.68
X-11.159 Y4.622
X-11.148 Y4.561
X-11.14 Y4.499
X-11.134 Y4.434
X-11.13 Y4.368
X-11.129 Y4.299
Y3.454
X-11.128 Y3.395
X-11.13 Y3.332
X-11.135 Y3.271
X-11.143 Y3.212
X-11.153 Y3.155
X-11.166 Y3.1
X-11.182 Y3.047
G2 X-11.186 Y3.037 I-0.143 J0.044
G1 X-11.202 Y2.996
G2 X-11.206 Y2.986 I-0.14 J0.054
G1 X-11.224 Y2.947
G2 X-11.229 Y2.937 I-0.136 J0.064
G1 X-11.25 Y2.9
G2 X-11.257 Y2.89 I-0.131 J0.074
G1 X-11.28 Y2.856
G2 X-11.287 Y2.846 I-0.124 J0.084
G1 X-11.313 Y2.814
G2 X-11.321 Y2.805 I-0.117 J0.094
G1 X-11.349 Y2.776
G2 X-11.358 Y2.767 I-0.108 J0.104
G1 X-11.388 Y2.74
G2 X-11.398 Y2.732 I-0.099 J0.113
G1 X-11.431 Y2.708
G2 X-11.441 Y2.701 I-0.089 J0.121
G1 X-11.476 Y2.68
G2 X-11.486 Y2.674 I-0.079 J0.128
G1 X-11.524 Y2.655
G2 X-11.534 Y2.65 I-0.068 J0.134
G1 X-11.574 Y2.634
G2 X-11.584 Y2.63 I-0.057 J0.139
G1 X-11.626 Y2.616
G2 X-11.636 Y2.613 I-0.047 J0.142
G1 X-11.68 Y2.602
X-11.736 Y2.591
X-11.794 Y2.583
X-11.853 Y2.578
X-11.914 Y2.577
X-11.975 Y2.578
X-12.034 Y2.582
X-12.091 Y2.59
X-12.147 Y2.6
X-12.201 Y2.614
G2 X-12.211 Y2.617 I0.038 J0.145
G1 X-12.253 Y2.632
G2 X-12.263 Y2.636 I0.049 J0.142
G1 X-12.303 Y2.653
G2 X-12.314 Y2.658 I0.059 J0.138
G1 X-12.351 Y2.677
G2 X-12.362 Y2.683 I0.07 J0.133
G1 X-12.397 Y2.705
G2 X-12.407 Y2.713 I0.08 J0.127
G1 X-12.44 Y2.737
G2 X-12.45 Y2.746 I0.091 J0.119
G1 X-12.48 Y2.773
G2 X-12.489 Y2.782 I0.101 J0.111
G1 X-12.517 Y2.812
G2 X-12.525 Y2.821 I0.11 J0.102
G1 X-12.551 Y2.854
G2 X-12.558 Y2.864 I0.118 J0.093
G1 X-12.581 Y2.899
G2 X-12.587 Y2.909 I0.125 J0.083
G1 X-12.608 Y2.947
G2 X-12.614 Y2.957 I0.131 J0.073
G1 X-12.632 Y2.997
G2 X-12.636 Y3.007 I0.136 J0.063
G1 X-12.653 Y3.05
G2 X-12.656 Y3.059 I0.14 J0.053
G1 X-12.67 Y3.105
X-12.684 Y3.161
X-12.695 Y3.221
X-12.703 Y3.282
X-12.708 Y3.344
X-12.711 Y3.409
Y3.477
Y4.296
Y4.301
X-12.768 Y4.303 Z-0.094 F1000
G0 Z2.3
X-14.738 Y2.545
Z1
G1 Z0.5 F1000
G3 X-14.468 Y2.636 Z0.421 I0.135 J0.046 F100
X-14.738 Y2.545 Z0.342 I-0.135 J-0.046
X-14.468 Y2.636 Z0.263 I0.135 J0.046
X-14.738 Y2.545 Z0.184 I-0.135 J-0.046
X-14.468 Y2.636 Z0.105 I0.135 J0.046
X-14.738 Y2.545 Z0.026 I-0.135 J-0.046
X-14.468 Y2.636 Z-0.053 I0.135 J0.046
X-14.689 Y2.704 Z-0.1 I-0.135 J-0.046
X-14.607 Y2.595 I0.041 J-0.055
X-14.689 Y2.704 I-0.041 J0.055
X-14.796 Y2.61 I0.562 J-0.75
X-14.826 Y2.471 I0.096 J-0.094
G1 X-14.821 Y2.456
X-14.815 Y2.44
X-14.808 Y2.425
X-14.801 Y2.41
X-14.794 Y2.397
X-14.787 Y2.385
X-14.78 Y2.375
X-14.773 Y2.365
X-14.766 Y2.356
X-14.759 Y2.349
X-14.667 Y2.304
X-14.657 Y2.303
X-14.645
X-14.634
X-14.624 Y2.304
X-14.536 Y2.348
X-14.529 Y2.356
X-14.522 Y2.364
X-14.515 Y2.374
X-14.508 Y2.385
X-14.501 Y2.397
X-14.494 Y2.41
X-14.487 Y2.424
X-14.481 Y2.44
X-14.474 Y2.456
X-14.467 Y2.476
X-14.419 Y2.611
X-14.372 Y2.744
X-14.325 Y2.876
X-14.279 Y3.007
X-14.234 Y3.136
X-14.19 Y3.264
X-14.146 Y3.39
X-14.104 Y3.515
X-14.062 Y3.639
X-14.021 Y3.762
X-13.98 Y3.883
X-13.94 Y4.003
X-13.902 Y4.122
X-13.864 Y4.239
X-13.826 Y4.355
X-13.79 Y4.469
X-13.754 Y4.583
X-13.719 Y4.695
X-13.685 Y4.805
X-13.651 Y4.914
X-13.619 Y5.022
X-13.587 Y5.129
X-13.556 Y5.234
X-13.525 Y5.339
X-13.546 Y5.43
X-13.639 Y5.461
X-13.712 Y5.396
X-13.746 Y5.28
X-13.778 Y5.173
X-13.81 Y5.066
X-13.841 Y4.96
X-13.873 Y4.854
X-13.905 Y4.749
X-13.938 Y4.645
X-13.97 Y4.541
X-14.002 Y4.438
X-14.034 Y4.336
X-14.066 Y4.234
X-14.099 Y4.134
X-14.131 Y4.034
X-14.163 Y3.934
X-14.196 Y3.835
X-14.228 Y3.737
X-14.261 Y3.64
X-14.293 Y3.543
X-14.326 Y3.447
X-14.359 Y3.352
X-14.392 Y3.257
X-14.424 Y3.163
X-14.457 Y3.07
X-14.49 Y2.978
G2 X-14.773 Y2.979 I-0.141 J0.05
G1 X-14.803 Y3.064
X-14.833 Y3.152
X-14.863 Y3.241
X-14.894 Y3.33
X-14.924 Y3.421
X-14.955 Y3.513
X-14.985 Y3.607
X-15.016 Y3.701
X-15.047 Y3.797
X-15.079 Y3.894
X-15.11 Y3.992
X-15.141 Y4.091
X-15.173 Y4.192
X-15.205 Y4.293
X-15.237 Y4.396
X-15.269 Y4.5
X-15.301 Y4.605
X-15.333 Y4.712
X-15.366 Y4.819
X-15.398 Y4.928
X-15.431 Y5.038
X-15.464 Y5.149
X-15.497 Y5.261
X-15.53 Y5.375
X-15.534 Y5.389
X-15.537 Y5.398
X-15.614 Y5.461
X-15.71 Y5.437
X-15.713 Y5.199
X-15.68 Y5.084
X-15.646 Y4.968
X-15.611 Y4.851
X-15.576 Y4.735
X-15.541 Y4.618
X-15.505 Y4.501
X-15.468 Y4.384
X-15.432 Y4.267
X-15.394 Y4.149
X-15.357 Y4.031
X-15.319 Y3.913
X-15.28 Y3.795
X-15.241 Y3.676
X-15.202 Y3.557
X-15.162 Y3.438
X-15.122 Y3.319
X-15.081 Y3.199
X-15.04 Y3.079
X-14.999 Y2.959
X-14.957 Y2.839
X-14.914 Y2.718
X-14.871 Y2.597
X-14.828 Y2.476
X-14.826 Y2.471
X-14.773 Y2.49 Z-0.094 F1000
G0 Z2.3
X-8.726 Y3.871
Z1
G1 Z0.5 F1000
G3 X-8.996 Y3.78 Z0.421 I-0.135 J-0.046 F100
X-8.726 Y3.871 Z0.342 I0.135 J0.046
X-8.996 Y3.78 Z0.263 I-0.135 J-0.046
X-8.726 Y3.871 Z0.184 I0.135 J0.046
X-8.996 Y3.78 Z0.105 I-0.135 J-0.046
X-8.726 Y3.871 Z0.026 I0.135 J0.046
X-8.996 Y3.78 Z-0.053 I-0.135 J-0.046
X-8.775 Y3.711 Z-0.1 I0.135 J0.046
X-8.758 Y3.829 I-0.05 J0.067
X-8.876 Y3.846 I-0.067 J-0.05
X-8.845 Y3.805 I0.015 J-0.021
X-8.876 Y3.846 I-0.015 J0.021
G1 X-8.874 Y3.829 Z-0.098 F1000
Z0.5
X-10.147 Y3.726 F100
G3 X-10.058 Y3.997 Z0.421 I0.044 J0.135
X-10.147 Y3.726 Z0.342 I-0.044 J-0.135
X-10.058 Y3.997 Z0.263 I0.044 J0.135
X-10.147 Y3.726 Z0.184 I-0.044 J-0.135
X-10.058 Y3.997 Z0.105 I0.044 J0.135
X-10.147 Y3.726 Z0.026 I-0.044 J-0.135
X-10.058 Y3.997 Z-0.053 I0.044 J0.135
X-10.245 Y3.861 Z-0.1 I-0.044 J-0.135
X-10.071 I0.087
X-10.135 I-0.032
X-10.071 I0.032
G0 Z1.1
X-9.994 Y5.342
Z1
G1 Z0.5 F1000
G3 X-10.264 Y5.25 Z0.421 I-0.135 J-0.046 F100
X-9.994 Y5.342 Z0.342 I0.135 J0.046
X-10.264 Y5.25 Z0.263 I-0.135 J-0.046
X-9.994 Y5.342 Z0.184 I0.135 J0.046
X-10.264 Y5.25 Z0.105 I-0.135 J-0.046
X-9.994 Y5.342 Z0.026 I0.135 J0.046
X-10.264 Y5.25 Z-0.053 I-0.135 J-0.046
X-10.044 Y5.182 Z-0.1 I0.135 J0.046
X-10.143 Y5.315 I-0.05 J0.067
X-10.115 Y5.277 I0.014 J-0.019
X-10.143 Y5.315 I-0.014 J0.019
G2 X-10.214 Y5.291 I-0.074 J0.099
G3 X-10.266 Y5.237 I0.002 J-0.054
G1 X-10.29 Y2.454
X-10.245 Y2.365
X-10.15 Y2.342
X-10.072 Y2.402
X-10.062 Y3.583
G2 X-9.912 Y3.733 I0.15
G1 X-9.078
G2 X-8.947 Y3.656 J-0.15
G1 X-8.916 Y3.599
X-8.884 Y3.543
X-8.853 Y3.487
X-8.823 Y3.431
X-8.792 Y3.376
X-8.762 Y3.322
X-8.732 Y3.268
X-8.702 Y3.214
X-8.673 Y3.161
X-8.644 Y3.108
X-8.615 Y3.056
X-8.586 Y3.004
X-8.558 Y2.953
X-8.529 Y2.902
X-8.502 Y2.852
X-8.474 Y2.802
X-8.447 Y2.753
X-8.419 Y2.704
X-8.393 Y2.655
X-8.366 Y2.607
X-8.34 Y2.56
X-8.313 Y2.513
X-8.288 Y2.466
X-8.262 Y2.42
X-8.256 Y2.409
X-8.18 Y2.344
X-8.085 Y2.373
X-8.084 Y2.478
X-8.113 Y2.543
X-8.133 Y2.584
X-8.154 Y2.627
X-8.175 Y2.669
X-8.196 Y2.712
X-8.218 Y2.756
X-8.241 Y2.799
X-8.264 Y2.843
X-8.287 Y2.888
X-8.311 Y2.933
X-8.335 Y2.978
X-8.36 Y3.024
X-8.386 Y3.07
X-8.412 Y3.116
X-8.438 Y3.163
X-8.465 Y3.211
X-8.492 Y3.258
X-8.52 Y3.306
X-8.548 Y3.355
X-8.577 Y3.403
X-8.606 Y3.452
X-8.636 Y3.502
X-8.666 Y3.552
X-8.697 Y3.602
G2 X-8.614 Y3.824 I0.128 J0.078
G1 X-8.565 Y3.839
X-8.52 Y3.856
X-8.479 Y3.873
X-8.439 Y3.892
X-8.402 Y3.912
X-8.367 Y3.934
X-8.334 Y3.957
X-8.304 Y3.981
X-8.275 Y4.006
X-8.249 Y4.033
X-8.224 Y4.061
X-8.201 Y4.091
X-8.179 Y4.122
X-8.16 Y4.155
X-8.142 Y4.189
X-8.125 Y4.226
X-8.111 Y4.264
X-8.097 Y4.305
X-8.086 Y4.347
X-8.077 Y4.392
X-8.069 Y4.438
X-8.063 Y4.487
X-8.059 Y4.538
X-8.057 Y4.591
Y4.637
X-8.058 Y4.674
X-8.06 Y4.711
X-8.063 Y4.747
X-8.066 Y4.782
X-8.071 Y4.816
X-8.076 Y4.848
X-8.082 Y4.88
X-8.089 Y4.91
X-8.096 Y4.94
X-8.105 Y4.968
X-8.114 Y4.995
X-8.123 Y5.021
X-8.133 Y5.046
X-8.144 Y5.07
X-8.156 Y5.093
X-8.168 Y5.115
X-8.181 Y5.136
X-8.195 Y5.156
X-8.209 Y5.175
X-8.224 Y5.194
X-8.239 Y5.212
X-8.255 Y5.228
X-8.272 Y5.245
X-8.287 Y5.258
X-8.306 Y5.271
X-8.329 Y5.286
X-8.352 Y5.301
X-8.376 Y5.315
X-8.402 Y5.328
X-8.427 Y5.341
X-8.454 Y5.353
X-8.481 Y5.365
X-8.51 Y5.375
X-8.539 Y5.386
X-8.569 Y5.395
X-8.6 Y5.404
X-8.631 Y5.412
X-8.664 Y5.42
X-8.697 Y5.427
X-8.731 Y5.433
X-8.766 Y5.439
X-8.802 Y5.443
X-8.839 Y5.447
X-8.877 Y5.451
X-8.916 Y5.453
X-8.955 Y5.455
X-8.996 Y5.456
X-9.037 Y5.457
X-10.175
X-10.264 Y5.411
X-10.266 Y5.237
X-10.214 Y5.199
G3 X-10.018 Y5.18 I0.106 J0.071
G2 X-9.912 Y5.224 I0.106 J-0.106
G1 X-9.046
X-8.996
X-8.943 Y5.222
X-8.893 Y5.218
X-8.844 Y5.212
X-8.797 Y5.204
X-8.751 Y5.194
X-8.707 Y5.182
X-8.665 Y5.168
X-8.624 Y5.151
G2 X-8.614 Y5.147 I-0.058 J-0.139
G1 X-8.584 Y5.132
G2 X-8.575 Y5.127 I-0.067 J-0.134
G1 X-8.547 Y5.11
G2 X-8.537 Y5.104 I-0.077 J-0.129
G1 X-8.511 Y5.086
G2 X-8.501 Y5.078 I-0.087 J-0.122
G1 X-8.478 Y5.058
G2 X-8.468 Y5.049 I-0.097 J-0.115
G1 X-8.447 Y5.028
G2 X-8.438 Y5.018 I-0.106 J-0.106
G1 X-8.419 Y4.995
G2 X-8.411 Y4.985 I-0.115 J-0.096
G1 X-8.394 Y4.96
G2 X-8.387 Y4.949 I-0.123 J-0.085
G1 X-8.372 Y4.923
G2 X-8.366 Y4.911 I-0.13 J-0.074
G1 X-8.353 Y4.883
G2 X-8.348 Y4.872 I-0.136 J-0.063
G1 X-8.338 Y4.842
G2 X-8.334 Y4.831 I-0.141 J-0.051
G1 X-8.326 Y4.8
G2 X-8.323 Y4.789 I-0.145 J-0.04
G1 X-8.317 Y4.756
G2 X-8.315 Y4.746 I-0.147 J-0.029
G1 X-8.311 Y4.712
X-8.308 Y4.666
Y4.62
Y4.599
Y4.583
Y4.559
X-8.309 Y4.536
X-8.311 Y4.513
X-8.314 Y4.49
X-8.317 Y4.467
X-8.322 Y4.445
X-8.328 Y4.423
X-8.335 Y4.401
X-8.343 Y4.379
X-8.351 Y4.358
X-8.361 Y4.338
X-8.372 Y4.317
X-8.384 Y4.298
X-8.396 Y4.279
X-8.41 Y4.26
X-8.425 Y4.242
X-8.44 Y4.225
X-8.456 Y4.209
X-8.473 Y4.193
X-8.491 Y4.178
X-8.509 Y4.164
X-8.529 Y4.151
X-8.545 Y4.14
X-8.557 Y4.131
X-8.576 Y4.118
X-8.595 Y4.106
X-8.615 Y4.094
X-8.635 Y4.083
X-8.655 Y4.073
X-8.676 Y4.063
X-8.697 Y4.053
X-8.718 Y4.044
X-8.739 Y4.036
X-8.761 Y4.029
X-8.783 Y4.022
X-8.806 Y4.016
X-8.828 Y4.01
X-8.851 Y4.006
X-8.874 Y4.001
X-8.897 Y3.998
X-8.92 Y3.995
X-8.944 Y3.992
X-8.967 Y3.99
X-8.991 Y3.989
X-9.015 Y3.988
X-9.039
X-9.062 Y3.989
X-9.912
G2 X-10.062 Y4.139 J0.15
G1 Y5.074
G2 X-10.018 Y5.18 I0.15
G1 X-10.058 Y5.22 Z-0.094 F1000
G0 Z2.3
X-17.678 Y-4.423
Z1
G1 Z0.5 F1000
X-17.681 F100
X-17.686
G3 X-17.807 Y-4.542 Z0.494 I-0.002 J-0.119
G1 Y-7.454 Z0.406
G3 X-17.565 Z0.394 I0.121
G1 Y-4.541 Z0.305
G3 X-17.678 Y-4.423 Z0.3 I-0.118
G1 X-17.681
X-17.686
G3 X-17.807 Y-4.542 Z0.294 I-0.002 J-0.119
G1 Y-7.454 Z0.206
G3 X-17.565 Z0.194 I0.121
G1 Y-4.541 Z0.105
G3 X-17.678 Y-4.423 Z0.1 I-0.118
G1 X-17.681
X-17.686
G3 X-17.807 Y-4.542 Z0.094 I-0.002 J-0.119
G1 Y-7.454 Z0.006
G3 X-17.565 Z-0.006 I0.121
G1 Y-4.541 Z-0.095
G3 X-17.678 Y-4.423 Z-0.1 I-0.118
X-17.742 Y-4.476 I-0.003 J-0.061
G1 X-17.744 Y-4.494
G3 X-17.622 Y-4.51 I0.061 J-0.008
X-17.679 Y-4.441 I-0.061 J0.008
G1 X-17.75 Y-4.436
X-17.806 Y-4.516
X-17.807 Y-7.458
X-17.767 Y-7.548
X-17.671 Y-7.581
X-17.583 Y-7.537
X-17.565 Y-4.538
X-17.604 Y-4.446
X-17.679 Y-4.441
X-17.682 Y-4.498 Z-0.094 F1000
G0 Z2.3
X-16.345 Y-7.343
Z1
G1 Z0.5 F1000
G3 X-16.615 Y-7.434 Z0.421 I-0.135 J-0.046 F100
X-16.345 Y-7.343 Z0.342 I0.135 J0.046
X-16.615 Y-7.434 Z0.263 I-0.135 J-0.046
X-16.345 Y-7.343 Z0.184 I0.135 J0.046
X-16.615 Y-7.434 Z0.105 I-0.135 J-0.046
X-16.345 Y-7.343 Z0.026 I0.135 J0.046
X-16.615 Y-7.434 Z-0.053 I-0.135 J-0.046
X-16.395 Y-7.503 Z-0.1 I0.135 J0.046
X-16.492 Y-7.373 I-0.049 J0.065
X-16.468 Y-7.405 I0.012 J-0.016
X-16.492 Y-7.373 I-0.012 J0.016
X-16.567 Y-7.43 I2.285 J-3.046
X-16.585 Y-7.522 I0.045 J-0.057
G1 X-16.584 Y-7.525
X-15.088 Y-7.54
X-15.002 Y-7.492
X-14.997 Y-7.394
X-16.254 Y-7.34
G2 X-16.404 Y-7.19 J0.15
G1 Y-4.538
X-16.444 Y-4.449
X-16.54 Y-4.425
X-16.62 Y-4.487
X-16.632 Y-7.438
X-16.585 Y-7.522
X-16.564 Y-7.492 Z-0.096 F1000
G0 Z2.3
X-12.727 Y-6.201
Z1
G1 Z0.5 F1000
G3 X-12.507 Y-6.113 Z0.434 I0.11 J0.044 F100
X-12.727 Y-6.201 Z0.369 I-0.11 J-0.044
X-12.507 Y-6.113 Z0.303 I0.11 J0.044
X-12.727 Y-6.201 Z0.237 I-0.11 J-0.044
X-12.507 Y-6.113 Z0.172 I0.11 J0.044
X-12.727 Y-6.201 Z0.106 I-0.11 J-0.044
X-12.507 Y-6.113 Z0.04 I0.11 J0.044
X-12.727 Y-6.201 Z-0.025 I-0.11 J-0.044
X-12.507 Y-6.113 Z-0.091 I0.11 J0.044
X-12.535 Y-6.072 Z-0.1 I-0.11 J-0.044
G1 X-12.548 Y-6.059
X-12.565 Y-6.045
X-12.582 Y-6.032
X-12.603 Y-6.018
X-12.625 Y-6.001
X-12.64 Y-5.991
X-12.655 Y-5.982
X-12.671 Y-5.972
X-12.688 Y-5.964
X-12.705 Y-5.955
X-12.724 Y-5.947
X-12.743 Y-5.939
X-12.764 Y-5.931
X-12.785 Y-5.924
X-12.808 Y-5.918
X-12.831 Y-5.912
X-12.855 Y-5.906
X-12.88 Y-5.901
X-12.906 Y-5.896
X-12.934 Y-5.892
X-12.962 Y-5.888
X-12.991 Y-5.885
X-13.021 Y-5.882
X-13.051 Y-5.88
X-13.083 Y-5.878
X-13.116 Y-5.877
X-13.15
X-13.183
X-13.22 Y-5.878
X-13.259 Y-5.879
X-13.298
X-13.335
X-13.371
X-13.406 Y-5.878
X-13.44 Y-5.877
X-13.472 Y-5.875
X-13.504 Y-5.873
X-13.535 Y-5.87
X-13.565 Y-5.867
X-13.594 Y-5.863
X-13.621 Y-5.858
X-13.648 Y-5.853
X-13.675 Y-5.848
X-13.7 Y-5.841
X-13.724 Y-5.834
X-13.748 Y-5.826
X-13.771 Y-5.818
X-13.794 Y-5.808
X-13.816 Y-5.797
X-13.837 Y-5.785
G2 X-13.846 Y-5.779 I0.076 J0.129
G1 X-13.858 Y-5.771
G2 X-13.867 Y-5.764 I0.085 J0.123
G1 X-13.892 Y-5.745
X-13.908 Y-5.732
X-13.924 Y-5.718
X-13.938 Y-5.703
X-13.951 Y-5.688
X-13.965 Y-5.671
X-13.977 Y-5.655
X-13.988 Y-5.637
X-13.999 Y-5.62
X-14.009 Y-5.601
X-14.018 Y-5.583
X-14.027 Y-5.563
X-14.035 Y-5.544
X-14.043 Y-5.523
X-14.05 Y-5.503
X-14.057 Y-5.482
X-14.063 Y-5.46
X-14.069 Y-5.438
X-14.075 Y-5.416
X-14.08 Y-5.392
X-14.085 Y-5.369
X-14.089 Y-5.345
X-14.093 Y-5.32
G2 X-14.095 Y-5.297 I0.148 J0.024
G1 Y-5.279
Y-5.258
X-14.094 Y-5.237
X-14.092 Y-5.214
X-14.09 Y-5.194
X-14.087 Y-5.172
X-14.084 Y-5.151
X-14.079 Y-5.129
X-14.074 Y-5.109
X-14.069 Y-5.089
X-14.063 Y-5.068
X-14.056 Y-5.047
X-14.049 Y-5.028
X-14.04 Y-5.007
X-14.032 Y-4.989
X-14.022 Y-4.968
X-14.012 Y-4.95
X-14.002 Y-4.931
X-13.99 Y-4.912
X-13.979 Y-4.895
X-13.967 Y-4.877
X-13.953 Y-4.859
X-13.94 Y-4.842
X-13.926 Y-4.825
G2 X-13.912 Y-4.81 I0.115 J-0.096
G1 X-13.897 Y-4.797
X-13.879 Y-4.781
X-13.859 Y-4.766
X-13.838 Y-4.751
X-13.818 Y-4.737
X-13.796 Y-4.723
X-13.774 Y-4.711
X-13.751 Y-4.699
X-13.728 Y-4.687
X-13.704 Y-4.677
X-13.68 Y-4.667
X-13.656 Y-4.658
X-13.631 Y-4.649
X-13.605 Y-4.641
X-13.579 Y-4.634
X-13.553 Y-4.627
X-13.526 Y-4.621
X-13.499 Y-4.616
X-13.471 Y-4.611
X-13.443 Y-4.607
X-13.414 Y-4.603
X-13.385 Y-4.6
X-13.355 Y-4.598
X-13.325 Y-4.596
X-13.294 Y-4.595
X-13.27
X-13.246 Y-4.596
X-13.222
X-13.199 Y-4.597
X-13.176 Y-4.599
X-13.153 Y-4.601
X-13.13 Y-4.603
X-13.108 Y-4.606
X-13.086 Y-4.609
X-13.065 Y-4.612
X-13.043 Y-4.616
X-13.022 Y-4.62
X-13.001 Y-4.625
X-12.981 Y-4.63
X-12.961 Y-4.636
X-12.941 Y-4.641
X-12.921 Y-4.648
X-12.902 Y-4.655
X-12.883 Y-4.662
X-12.864 Y-4.67
X-12.846 Y-4.678
X-12.828 Y-4.686
X-12.811 Y-4.696
G2 X-12.798 Y-4.703 I-0.07 J-0.133
G1 X-12.789 Y-4.709
X-12.777 Y-4.717
X-12.766 Y-4.724
X-12.755 Y-4.733
X-12.744 Y-4.74
X-12.734 Y-4.748
X-12.723 Y-4.757
X-12.712 Y-4.766
X-12.702 Y-4.774
X-12.692 Y-4.783
X-12.682 Y-4.792
X-12.673 Y-4.801
X-12.663 Y-4.81
X-12.653 Y-4.82
X-12.644 Y-4.83
X-12.635 Y-4.839
X-12.626 Y-4.849
X-12.617 Y-4.859
X-12.608 Y-4.869
X-12.6 Y-4.88
X-12.592 Y-4.89
X-12.583 Y-4.901
X-12.576 Y-4.911
X-12.483 Y-4.941
X-12.406 Y-4.839
X-12.425 Y-4.754
X-12.431 Y-4.744
X-12.438 Y-4.734
X-12.445 Y-4.724
X-12.452 Y-4.715
X-12.459 Y-4.705
X-12.467 Y-4.696
X-12.474 Y-4.687
X-12.482 Y-4.678
X-12.49 Y-4.67
X-12.499 Y-4.661
X-12.508 Y-4.653
X-12.516 Y-4.645
X-12.526 Y-4.637
X-12.535 Y-4.629
X-12.545 Y-4.622
X-12.555 Y-4.615
X-12.566 Y-4.607
X-12.576 Y-4.6
X-12.587 Y-4.593
X-12.599 Y-4.587
X-12.612 Y-4.579
X-12.636 Y-4.564
X-12.654 Y-4.554
X-12.673 Y-4.544
X-12.693 Y-4.534
X-12.714 Y-4.525
X-12.736 Y-4.516
X-12.76 Y-4.507
X-12.784 Y-4.499
X-12.81 Y-4.491
X-12.837 Y-4.484
X-12.865 Y-4.477
X-12.895 Y-4.471
X-12.925 Y-4.465
X-12.957 Y-4.459
X-12.989 Y-4.454
X-13.023 Y-4.45
X-13.058 Y-4.446
X-13.094 Y-4.442
X-13.131 Y-4.439
X-13.17 Y-4.437
X-13.209 Y-4.435
X-13.25 Y-4.433
X-13.291 Y-4.432
X-13.334
X-13.371 Y-4.433
X-13.408 Y-4.434
X-13.443 Y-4.436
X-13.478 Y-4.439
X-13.512 Y-4.442
X-13.546 Y-4.447
X-13.578 Y-4.452
X-13.61 Y-4.458
X-13.641 Y-4.464
X-13.671 Y-4.472
X-13.701 Y-4.48
X-13.73 Y-4.489
X-13.758 Y-4.498
X-13.785 Y-4.508
X-13.812 Y-4.519
X-13.838 Y-4.531
X-13.863 Y-4.544
X-13.888 Y-4.557
X-13.912 Y-4.57
X-13.935 Y-4.585
X-13.958 Y-4.6
X-13.981 Y-4.616
X-14.002 Y-4.633
X-14.022 Y-4.65
X-14.042 Y-4.668
X-14.062 Y-4.688
X-14.08 Y-4.707
X-14.098 Y-4.728
X-14.115 Y-4.749
X-14.13 Y-4.771
X-14.146 Y-4.794
X-14.16 Y-4.818
X-14.173 Y-4.842
X-14.185 Y-4.867
X-14.197 Y-4.893
X-14.208 Y-4.92
X-14.218 Y-4.948
X-14.227 Y-4.976
X-14.235 Y-5.006
X-14.242 Y-5.037
X-14.249 Y-5.068
X-14.254 Y-5.1
X-14.259 Y-5.134
X-14.262 Y-5.169
X-14.265 Y-5.204
X-14.267 Y-5.241
X-14.268 Y-5.278
X-14.267 Y-5.318
Y-5.344
Y-5.367
X-14.266 Y-5.389
X-14.264 Y-5.411
X-14.262 Y-5.432
X-14.259 Y-5.453
X-14.255 Y-5.473
X-14.252 Y-5.494
X-14.247 Y-5.513
X-14.242 Y-5.533
X-14.236 Y-5.552
X-14.23 Y-5.57
X-14.224 Y-5.589
X-14.216 Y-5.607
X-14.209 Y-5.624
X-14.201 Y-5.642
X-14.192 Y-5.659
X-14.182 Y-5.676
X-14.172 Y-5.693
X-14.162 Y-5.709
X-14.151 Y-5.725
X-14.139 Y-5.741
X-14.127 Y-5.757
X-14.113 Y-5.773
X-14.096 Y-5.793
X-14.079 Y-5.811
X-14.061 Y-5.829
X-14.043 Y-5.846
X-14.025 Y-5.862
X-14.005 Y-5.877
X-13.985 Y-5.892
X-13.964 Y-5.906
X-13.943 Y-5.919
X-13.921 Y-5.932
X-13.898 Y-5.944
X-13.875 Y-5.955
X-13.85 Y-5.966
X-13.825 Y-5.976
X-13.8 Y-5.986
X-13.773 Y-5.995
X-13.746 Y-6.003
X-13.717 Y-6.01
X-13.688 Y-6.017
X-13.658 Y-6.023
X-13.627 Y-6.029
X-13.596 Y-6.033
X-13.563 Y-6.037
X-13.534 Y-6.04
X-13.49 Y-6.041
X-13.442 Y-6.042
X-13.395 Y-6.044
X-13.35 Y-6.046
X-13.306 Y-6.048
X-13.264 Y-6.051
X-13.224 Y-6.054
X-13.186 Y-6.057
X-13.149 Y-6.061
X-13.113 Y-6.065
X-13.08 Y-6.069
X-13.047 Y-6.074
X-13.017 Y-6.079
X-12.987 Y-6.085
X-12.959 Y-6.091
X-12.933 Y-6.098
X-12.907 Y-6.106
X-12.882 Y-6.114
X-12.858 Y-6.123
X-12.836 Y-6.134
G2 X-12.826 Y-6.139 I-0.063 J-0.136
G1 X-12.813 Y-6.146
G2 X-12.802 Y-6.153 I-0.073 J-0.131
G1 X-12.791 Y-6.16
G2 X-12.779 Y-6.169 I-0.084 J-0.124
G1 X-12.769 Y-6.177
G2 X-12.756 Y-6.19 I-0.096 J-0.116
G1 X-12.736 Y-6.206
X-12.72 Y-6.222
X-12.704 Y-6.238
X-12.69 Y-6.255
X-12.676 Y-6.272
X-12.663 Y-6.291
X-12.651 Y-6.31
X-12.64 Y-6.328
X-12.63 Y-6.35
X-12.621 Y-6.37
X-12.613 Y-6.391
X-12.605 Y-6.412
X-12.599 Y-6.434
X-12.594 Y-6.455
X-12.589 Y-6.478
X-12.585 Y-6.501
X-12.582 Y-6.524
X-12.579 Y-6.548
X-12.577 Y-6.571
X-12.576 Y-6.595
Y-6.619
Y-6.643
X-12.577 Y-6.669
X-12.579 Y-6.69
X-12.581 Y-6.714
X-12.584 Y-6.739
X-12.588 Y-6.762
X-12.593 Y-6.786
X-12.599 Y-6.81
X-12.605 Y-6.834
X-12.613 Y-6.856
X-12.621 Y-6.879
X-12.63 Y-6.902
X-12.641 Y-6.924
X-12.652 Y-6.945
X-12.663 Y-6.967
X-12.676 Y-6.988
X-12.69 Y-7.009
X-12.704 Y-7.029
X-12.719 Y-7.049
X-12.735 Y-7.068
X-12.751 Y-7.087
X-12.768 Y-7.105
X-12.786 Y-7.123
X-12.805 Y-7.141
X-12.824 Y-7.158
X-12.844 Y-7.175
X-12.862 Y-7.189
X-12.879 Y-7.202
X-12.897 Y-7.214
X-12.915 Y-7.226
X-12.933 Y-7.237
X-12.953 Y-7.247
X-12.972 Y-7.257
X-12.991 Y-7.267
X-13.011 Y-7.275
X-13.031 Y-7.284
X-13.051 Y-7.292
X-13.072 Y-7.299
X-13.093 Y-7.306
X-13.115 Y-7.312
X-13.136 Y-7.318
X-13.158 Y-7.323
X-13.18 Y-7.328
X-13.203 Y-7.333
X-13.225 Y-7.336
X-13.248 Y-7.34
X-13.272 Y-7.343
X-13.295 Y-7.345
X-13.319 Y-7.347
X-13.343 Y-7.349
X-13.37 Y-7.35
X-13.394
X-13.418
X-13.441 Y-7.349
X-13.465 Y-7.348
X-13.488 Y-7.347
X-13.512 Y-7.345
X-13.535 Y-7.342
X-13.558 Y-7.339
X-13.58 Y-7.336
X-13.603 Y-7.332
X-13.626 Y-7.328
X-13.648 Y-7.323
X-13.67 Y-7.318
X-13.692 Y-7.313
X-13.714 Y-7.307
X-13.735 Y-7.3
X-13.757 Y-7.293
X-13.778 Y-7.286
X-13.799 Y-7.278
X-13.82 Y-7.269
X-13.84 Y-7.261
X-13.861 Y-7.251
X-13.879 Y-7.242
X-13.9 Y-7.233
X-13.912 Y-7.227
X-13.924 Y-7.221
X-13.936 Y-7.214
X-13.948 Y-7.208
X-13.959 Y-7.201
X-13.971 Y-7.194
X-13.982 Y-7.188
X-13.994 Y-7.18
X-14.005 Y-7.173
X-14.015 Y-7.166
X-14.027 Y-7.158
X-14.037 Y-7.15
X-14.048 Y-7.142
X-14.059 Y-7.134
X-14.069 Y-7.126
X-14.079 Y-7.117
X-14.089 Y-7.108
X-14.099 Y-7.1
X-14.108 Y-7.091
X-14.117 Y-7.082
X-14.127 Y-7.072
X-14.214 Y-7.033
X-14.295 Y-7.09
X-14.315 Y-7.187
X-14.272 Y-7.258
X-14.266 Y-7.266
X-14.259 Y-7.274
X-14.252 Y-7.282
X-14.244 Y-7.29
X-14.236 Y-7.298
X-14.227 Y-7.307
X-14.219 Y-7.315
X-14.21 Y-7.322
X-14.2 Y-7.33
X-14.19 Y-7.339
X-14.179 Y-7.347
X-14.169 Y-7.354
X-14.157 Y-7.362
X-14.146 Y-7.37
X-14.134 Y-7.377
X-14.122 Y-7.385
X-14.109 Y-7.392
X-14.096 Y-7.4
X-14.083 Y-7.407
X-14.071 Y-7.414
X-14.058 Y-7.421
X-14.046 Y-7.427
X-14.034 Y-7.433
X-14.023 Y-7.439
X-14.011 Y-7.444
X-14 Y-7.45
X-13.989 Y-7.455
X-13.979 Y-7.459
X-13.968 Y-7.464
X-13.958 Y-7.468
X-13.948 Y-7.472
X-13.939 Y-7.475
X-13.859 Y-7.498
X-13.84 Y-7.502
X-13.82 Y-7.506
X-13.801 Y-7.509
X-13.781 Y-7.513
X-13.76 Y-7.516
X-13.74 Y-7.519
X-13.719 Y-7.522
X-13.698 Y-7.524
X-13.676 Y-7.526
X-13.654 Y-7.528
X-13.632 Y-7.53
X-13.61 Y-7.531
X-13.587 Y-7.533
X-13.564 Y-7.534
X-13.54
X-13.517 Y-7.535
X-13.493
X-13.468
X-13.444
X-13.419 Y-7.534
X-13.394 Y-7.533
X-13.368 Y-7.532
X-13.342 Y-7.531
X-13.302 Y-7.529
X-13.265 Y-7.526
X-13.229 Y-7.523
X-13.194 Y-7.519
X-13.159 Y-7.514
X-13.126 Y-7.509
X-13.093 Y-7.502
X-13.061 Y-7.495
X-13.03 Y-7.487
X-13 Y-7.479
X-12.97 Y-7.47
X-12.941 Y-7.46
X-12.914 Y-7.449
X-12.886 Y-7.438
X-12.86 Y-7.426
X-12.834 Y-7.413
X-12.809 Y-7.4
X-12.785 Y-7.386
X-12.761 Y-7.371
X-12.738 Y-7.356
X-12.716 Y-7.34
X-12.694 Y-7.323
X-12.673 Y-7.306
X-12.651 Y-7.286
X-12.628 Y-7.266
X-12.608 Y-7.247
X-12.589 Y-7.227
X-12.571 Y-7.206
X-12.553 Y-7.185
X-12.536 Y-7.163
X-12.52 Y-7.141
X-12.505 Y-7.118
X-12.49 Y-7.095
X-12.477 Y-7.071
X-12.464 Y-7.046
X-12.452 Y-7.02
X-12.441 Y-6.994
X-12.43 Y-6.967
X-12.42 Y-6.939
X-12.411 Y-6.911
X-12.403 Y-6.881
X-12.395 Y-6.851
X-12.389 Y-6.821
X-12.383 Y-6.789
X-12.378 Y-6.756
X-12.374 Y-6.723
X-12.37 Y-6.688
X-12.368 Y-6.657
Y-6.617
X-12.369 Y-6.575
X-12.371 Y-6.534
X-12.374 Y-6.495
X-12.378 Y-6.457
X-12.383 Y-6.421
X-12.389 Y-6.387
X-12.396 Y-6.354
X-12.403 Y-6.322
X-12.412 Y-6.293
X-12.421 Y-6.264
X-12.431 Y-6.238
X-12.441 Y-6.212
X-12.452 Y-6.189
X-12.464 Y-6.166
X-12.477 Y-6.145
X-12.49 Y-6.126
X-12.503 Y-6.107
X-12.518 Y-6.09
X-12.533 Y-6.074
X-12.535 Y-6.072
X-12.575 Y-6.113 Z-0.094 F1000
G0 Z2.3
X-9.393 Y12.163
Z1
G1 Z0.5 F1000
G3 X-9.663 Y12.254 Z0.421 I-0.135 J0.046 F100
X-9.393 Y12.163 Z0.342 I0.135 J-0.046
X-9.663 Y12.254 Z0.263 I-0.135 J0.046
X-9.393 Y12.163 Z0.184 I0.135 J-0.046
X-9.663 Y12.254 Z0.105 I-0.135 J0.046
X-9.393 Y12.163 Z0.026 I0.135 J-0.046
X-9.663 Y12.254 Z-0.053 I-0.135 J0.046
X-9.529 Y12.066 Z-0.1 I0.135 J-0.046
X-9.493 Y12.071 I0.001 J0.137
X-9.467 Y12.081 I-0.028 J0.105
G2 X-4.133 Y14.239 I10.769 J-18.952
X1.588 Y14.861 I5.009 J-19.457
X1.69 Y14.841 I-0.012 J-0.344
X1.785 Y14.797 I-0.189 J-0.532
G3 X1.949 Y14.891 I0.055 J0.094
X1.845 Y15.004 I-0.109 J0.004
X-9.61 Y12.299 I-1.014 J-21.314
X-9.665 Y12.206 I0.053 J-0.095
X-9.529 Y12.066 I0.137 J-0.003
G2 X-9.451 Y12.024 I-0.001 J-0.095
G3 X-9.365 Y12.004 I0.054 J0.036
G2 X-4.107 Y14.137 I10.863 J-19.224
X1.584 Y14.77 I4.995 J-19.031
X1.929 Y14.338 I-0.013 J-0.364
G3 X1.878 Y13.788 I2.914 J-0.55
X1.964 Y13.702 I0.086
G1 X1.981
G3 X2.067 Y13.788 J0.086
G1 Y14.912
G3 X1.868 Y15.121 I-0.21
X-9.675 Y12.398 I-1.065 J-21.309
X-9.775 Y12.269 I0.103 J-0.183
X-9.451 Y11.96 I0.247 J-0.066
X-9.411 Y11.978 I-0.064 J0.2
G2 X-9.365 Y12.004 I10.909 J-19.198
X-9.225 Y11.993 I0.062 J-0.11
G3 X-9.084 Y11.982 I0.079 J0.1
G2 X1.576 Y14.581 I10.159 J-18.502
X1.722 Y14.431 I-0.004 J-0.15
G1 Y13.547
X2.222
Y15.257
G3 X-9.815 Y12.497 I-1.406 J-21.504
X-9.35 Y11.833 I0.287 J-0.294
G2 X-9.084 Y11.982 I10.424 J-18.354
G1 X-9.112 Y12.032 Z-0.094 F1000
G0 Z2.3
X-1.834 Y11.914
Z1
G1 Z0.5 F1000
G3 X-1.923 Y11.643 Z0.421 I-0.044 J-0.135 F100
X-1.834 Y11.914 Z0.342 I0.044 J0.135
X-1.923 Y11.643 Z0.263 I-0.044 J-0.135
X-1.834 Y11.914 Z0.184 I0.044 J0.135
X-1.923 Y11.643 Z0.105 I-0.044 J-0.135
X-1.834 Y11.914 Z0.026 I0.044 J0.135
X-1.923 Y11.643 Z-0.053 I-0.044 J-0.135
X-1.736 Y11.779 Z-0.1 I0.044 J0.135
X-1.791 I-0.027
X-1.736 I0.027
G2 X-1.702 Y11.862 I0.118
G3 X-1.688 Y11.951 I-0.054 J0.054
G1 X-1.691 Y11.955
G3 X-1.91 Y11.901 I-0.103 J-0.054
G1 Y11.752
G3 X-1.735 Y11.633 I0.128
G2 X-1.704 Y11.643 I0.097 J-0.243
G3 X-1.623 Y11.826 I-0.032 J0.124
G1 X-1.688 Y11.951
X-1.739 Y11.924 Z-0.094 F1000
G0 Z1.1
X-0.141 Y9.56
Z1
G1 Z0.5 F1000
G3 X-0.23 Y9.289 Z0.421 I-0.044 J-0.135 F100
X-0.141 Y9.56 Z0.342 I0.044 J0.135
X-0.23 Y9.289 Z0.263 I-0.044 J-0.135
X-0.141 Y9.56 Z0.184 I0.044 J0.135
X-0.23 Y9.289 Z0.105 I-0.044 J-0.135
X-0.141 Y9.56 Z0.026 I0.044 J0.135
X-0.23 Y9.289 Z-0.053 I-0.044 J-0.135
X-0.043 Y9.424 Z-0.1 I0.044 J0.135
X-0.204 I-0.081
X-0.043 I0.081
G2 X0.028 Y9.529 I0.113
G3 X0.099 Y9.634 I-0.044 J0.106
G1 X0.123 Y12.186
X0.094 Y12.247
G2 X0.07 Y12.274 I0.101 J0.111
G1 X0.008 Y12.278
G2 X-0.002 I-0.007 J0.15
G1 X-0.012
X-0.056 Y12.274
G2 X-0.08 Y12.247 I-0.124 J0.084
G1 X-0.109 Y9.793
G2 X-0.392 Y9.723 I-0.15
G1 X-1.628 Y12.075
X-1.641 Y12.103
X-1.649 Y12.119
X-1.657 Y12.134
X-1.665 Y12.148
X-1.674 Y12.161
X-1.682 Y12.173
X-1.691 Y12.184
X-1.7 Y12.194
X-1.708 Y12.203
X-1.717 Y12.212
X-1.726 Y12.219
X-1.735 Y12.226
X-1.744 Y12.233
X-1.754 Y12.238
X-1.764 Y12.244
X-1.774 Y12.248
X-1.784 Y12.253
X-1.795 Y12.256
X-1.806 Y12.26
X-1.818 Y12.262
X-1.831 Y12.265
X-1.844 Y12.266
X-1.858 Y12.268
X-1.876
X-1.889 Y12.269
X-1.986 Y12.252
X-1.997 Y12.242
G2 X-2.01 Y12.229 I-0.11 J0.102
G1 X-2.021 Y9.261
X-1.982 Y9.176
X-1.886 Y9.16
X-1.8 Y9.208
X-1.789 Y11.391
G2 X-1.507 Y11.462 I0.15
G1 X-0.354 Y9.341
X-0.343 Y9.319
X-0.336 Y9.306
X-0.328 Y9.293
X-0.32 Y9.281
X-0.312 Y9.27
X-0.303 Y9.26
X-0.294 Y9.25
X-0.285 Y9.241
X-0.275 Y9.233
X-0.265 Y9.225
X-0.255 Y9.217
X-0.244 Y9.21
X-0.233 Y9.203
X-0.22 Y9.197
X-0.208 Y9.191
X-0.194 Y9.186
X-0.18 Y9.181
X-0.165 Y9.176
X-0.149 Y9.172
X-0.133 Y9.169
X-0.115 Y9.166
X-0.097 Y9.163
X-0.078 Y9.161
X-0.067
X-0.055 Y9.162
X-0.044 Y9.163
X-0.034 Y9.165
X0.064 Y9.191
X0.076 Y9.199
G2 X0.095 Y9.211 I0.091 J-0.119
G1 X0.099 Y9.634
X0.042 Z-0.094 F1000
G0 Z2.3
X2.032 Y6.402
Z1
G1 Z0.5 F1000
G3 X1.944 Y6.132 Z0.421 I-0.044 J-0.135 F100
X2.032 Y6.402 Z0.342 I0.044 J0.135
X1.944 Y6.132 Z0.263 I-0.044 J-0.135
X2.032 Y6.402 Z0.184 I0.044 J0.135
X1.944 Y6.132 Z0.105 I-0.044 J-0.135
X2.032 Y6.402 Z0.026 I0.044 J0.135
X1.944 Y6.132 Z-0.053 I-0.044 J-0.135
X2.131 Y6.267 Z-0.1 I0.044 J0.135
X2.073 I-0.029
X2.131 I0.029
G1 X2.123 Y6.259 Z-0.099 F1000
G0 Z1.1
X-6.465 Y2.475
Z1
G1 Z0.5 F1000
G3 X-6.196 Y2.567 Z0.421 I0.135 J0.046 F100
X-6.465 Y2.475 Z0.342 I-0.135 J-0.046
X-6.196 Y2.567 Z0.263 I0.135 J0.046
X-6.465 Y2.475 Z0.184 I-0.135 J-0.046
X-6.196 Y2.567 Z0.105 I0.135 J0.046
X-6.465 Y2.475 Z0.026 I-0.135 J-0.046
X-6.196 Y2.567 Z-0.053 I0.135 J0.046
X-6.416 Y2.635 Z-0.1 I-0.135 J-0.046
X-6.382 Y2.589 I0.017 J-0.023
X-6.416 Y2.635 I-0.017 J0.023
G1 Y2.629 Z-0.099 F1000
G0 Z1.1
X10.673 Y2.922
Z1
G1 Z0.5 F1000
G3 X10.584 Y2.651 Z0.421 I-0.044 J-0.135 F100
X10.673 Y2.922 Z0.342 I0.044 J0.135
X10.584 Y2.651 Z0.263 I-0.044 J-0.135
X10.673 Y2.922 Z0.184 I0.044 J0.135
X10.584 Y2.651 Z0.105 I-0.044 J-0.135
X10.673 Y2.922 Z0.026 I0.044 J0.135
X10.584 Y2.651 Z-0.053 I-0.044 J-0.135
X10.771 Y2.787 Z-0.1 I0.044 J0.135
X10.713 I-0.029
X10.771 I0.029
G2 X10.813 Y2.856 I0.077
G3 X10.807 Y2.936 I-0.019 J0.039
X10.764 Y2.942 I-0.038 J-0.122
G2 X10.262 Y3.153 I-0.024 J0.646
G3 X9.866 Y3.528 I-2.701 J-2.456
X3.508 Y6.17 I-7.612 J-9.347
G1 X2.658 Y6.246
G2 X2.411 Y6.275 I0.049 J1.489
X2.193 Y6.394 I0.083 J0.412
G3 X2.007 Y6.392 I-0.092 J-0.089
G2 X1.503 Y6.183 I-0.478 J0.44
G3 X0.957 Y6.165 I-0.152 J-3.645
X-5.351 Y3.527 I1.299 J-11.97
G1 X-6.046 Y2.942
G2 X-6.218 Y2.817 I-0.563 J0.595
X-6.424 Y2.766 I-0.2 J0.369
G3 X-6.554 Y2.633 I-0.002 J-0.128
G2 X-6.767 Y2.121 I-0.657 J-0.028
G3 X-7.146 Y1.716 I2.453 J-2.68
X-9.733 Y-4.671 I9.337 J-7.498
G1 X-9.805 Y-5.522
G2 X-9.823 Y-5.692 I-1.093 J0.026
X-9.886 Y-5.852 I-0.429 J0.079
G3 X-9.807 Y-5.999 I0.079 J-0.052
G1 X-9.759
G3 X-9.664 Y-5.903 J0.095
G2 X11.833 Y1.349 I11.945 J0.082
X13.649 Y-2.228 I-9.352 J-6.995
X14.174 Y-6.206 I-11.626 J-3.558
G3 X14.269 Y-6.304 I0.095 J-0.003
G1 X14.324
G3 X14.403 Y-6.157 J0.095
G2 X14.281 Y-5.673 I0.647 J0.421
G3 X14.287 Y-5.174 I-3.684 J0.3
X11.972 Y1.311 I-12.067 J-0.652
G1 X11.156 Y2.331
G2 X10.98 Y2.546 I1.86 J1.704
X10.897 Y2.811 I0.348 J0.255
G3 X10.807 Y2.936 I-0.128 J0.003
G2 X10.731 Y2.997 I0.041 J0.129
G3 X10.654 Y3.056 I-0.11 J-0.065
G2 X10.509 Y3.135 I0.088 J0.331
G3 X4.313 Y6.172 I-8.168 J-8.826
X3.433 Y6.294 I-2.408 J-14.178
X2.547 Y6.352 I-1.139 J-10.654
G2 X2.178 Y6.753 I0.009 J0.378
G3 X2.195 Y7.297 I-9.086 J0.545
X2.105 Y7.387 I-0.089
G1 X2.087
G3 X1.998 Y7.297 J-0.089
X2.035 Y6.758 I3.982
G2 X1.689 Y6.343 I-0.363 J-0.05
G3 X-4.829 Y4.067 I0.541 J-12.023
X-5.529 Y3.534 I8.888 J-12.379
X-6.189 Y2.951 I6.389 J-7.893
G2 X-6.673 Y2.979 I-0.229 J0.238
G3 X-7.001 Y3.335 I-3.416 J-2.817
X-7.138 Y3.194 I-0.068 J-0.07
X-6.781 Y2.853 I17.213 J17.693
G2 X-6.76 Y2.36 I-0.241 J-0.257
G3 X-9.751 Y-3.923 I9.004 J-8.141
G1 X-9.907 Y-5.627
G2 X-10.311 Y-5.965 I-0.348 J0.006
G3 X-10.836 Y-5.923 I-0.525 J-3.261
X-10.925 Y-6.012 J-0.089
G1 Y-6.03
G3 X-10.836 Y-6.119 I0.089
G1 X-9.761
G3 X-9.543 Y-5.9 J0.218
G2 X11.744 Y1.282 I11.828 J0.081
X13.537 Y-2.261 I-9.204 J-6.885
X14.053 Y-6.199 I-11.586 J-3.521
G3 X14.271 Y-6.425 I0.218 J-0.008
G1 X15.333
G3 X15.423 Y-6.335 J0.089
G1 Y-6.317
G3 X15.333 Y-6.228 I-0.089
X14.813 Y-6.261 J-4.185
G2 X14.424 Y-5.914 I-0.043 J0.343
G3 X12.485 Y0.763 I-12.074 J0.113
X11.455 Y2.14 I-10.049 J-6.439
X11.098 Y2.518 I-4.589 J-3.982
G2 X11.11 Y3.038 I0.247 J0.254
X11.286 Y3.185 I2.437 J-2.753
G3 X11.463 Y3.332 I-2.261 J2.9
X11.333 Y3.479 I-0.065 J0.074
X10.987 Y3.148 I4.135 J-4.671
G2 X10.654 Y3.056 I-0.246 J0.238
X10.557 Y3.213 I0.034 J0.13
G3 X10.499 Y3.389 I-0.181 J0.038
X2.494 Y6.538 I-8.241 J-9.198
G2 X2.346 Y6.688 I0.003 J0.15
G1 Y7.538
X1.846
Y6.678
G2 X1.703 Y6.528 I-0.15
G3 X-6.314 Y3.081 I0.555 J-12.338
G2 X-6.523 Y3.082 I-0.104 J0.108
G1 X-7.137 Y3.679
X-7.485 Y3.32
X-6.871 Y2.723
G2 X-6.865 Y2.515 I-0.105 J-0.108
G3 X-10.091 Y-5.623 I9.123 J-8.324
G2 X-10.241 Y-5.771 I-0.15 J0.002
G1 X-11.077
Y-6.271
X-9.556
G3 X-9.387 Y-6.146 I0.006 J0.168
G2 X1.904 Y5.835 I11.645 J0.336
X13.889 Y-6.476 I0.354 J-11.645
G3 X14 Y-6.576 I0.111 J0.011
G1 X15.574
Y-6.076
X14.757
G2 X14.607 Y-5.925 J0.15
G3 X11.211 Y2.698 I-12.349 J0.116
G2 X11.22 Y2.914 I0.109 J0.103
G1 X11.816 Y3.441
X11.485 Y3.816
X10.848 Y3.252
G2 X10.647 Y3.254 I-0.099 J0.112
G3 X10.499 Y3.389 I-8.389 J-9.064
G1 X10.461 Y3.346 Z-0.094 F1000
G0 Z2.3
X2.69 Y9.927
Z1
G1 Z0.5 F1000
G3 X2.779 Y10.198 Z0.421 I0.044 J0.135 F100
X2.69 Y9.927 Z0.342 I-0.044 J-0.135
X2.779 Y10.198 Z0.263 I0.044 J0.135
X2.69 Y9.927 Z0.184 I-0.044 J-0.135
X2.779 Y10.198 Z0.105 I0.044 J0.135
X2.69 Y9.927 Z0.026 I-0.044 J-0.135
X2.779 Y10.198 Z-0.053 I0.044 J0.135
X2.592 Y10.063 Z-0.1 I-0.044 J-0.135
X2.766 I0.087
X2.703 I-0.032
X2.766 I0.032
G1 X2.744 Y10.054 Z-0.098 F1000
Z0.5
X1.322 Y10.011 F100
G3 X1.051 Y10.099 Z0.421 I-0.136 J0.044
X1.322 Y10.011 Z0.342 I0.136 J-0.044
X1.051 Y10.099 Z0.263 I-0.136 J0.044
X1.322 Y10.011 Z0.184 I0.136 J-0.044
X1.051 Y10.099 Z0.105 I-0.136 J0.044
X1.322 Y10.011 Z0.026 I0.136 J-0.044
X1.051 Y10.099 Z-0.053 I-0.136 J0.044
X1.187 Y9.913 Z-0.1 I0.136 J-0.044
X1.186 Y10.085 J0.086
X1.187 Y10.025 J-0.03
X1.186 Y10.085 J0.03
G1 X1.184 Y10.083 F1000
Z0.5
X1.872 Y11.813 F100
G3 X1.961 Y12.084 Z0.421 I0.044 J0.135
X1.872 Y11.813 Z0.342 I-0.044 J-0.135
X1.961 Y12.084 Z0.263 I0.044 J0.135
X1.872 Y11.813 Z0.184 I-0.044 J-0.135
X1.961 Y12.084 Z0.105 I0.044 J0.135
X1.872 Y11.813 Z0.026 I-0.044 J-0.135
X1.961 Y12.084 Z-0.053 I0.044 J0.135
X1.774 Y11.949 Z-0.1 I-0.044 J-0.135
X2.008 I0.117
X1.928 I-0.04
X2.008 I0.04
G2 X2.067 Y12.074 I0.161
G3 X2.08 Y12.212 I-0.061 J0.075
G1 X2.076 Y12.217
X2.068 Y12.225
X2.06 Y12.232
X1.963 Y12.268
X1.869 Y12.226
X1.862 Y12.218
X1.854 Y12.208
X1.845 Y12.198
X1.837 Y12.186
X1.829 Y12.173
X1.821 Y12.159
X1.812 Y12.143
X1.804 Y12.127
X1.796 Y12.109
X1.788 Y12.09
X1.779 Y12.068
X1.732 Y11.944
X1.685 Y11.819
X1.638 Y11.696
X1.591 Y11.573
X1.545 Y11.451
X1.499 Y11.33
X1.453 Y11.21
X1.407 Y11.09
X1.361 Y10.971
X1.316 Y10.853
X1.271 Y10.736
X1.226 Y10.62
X1.181 Y10.504
X1.137 Y10.389
X1.092 Y10.275
X1.048 Y10.162
X1.005 Y10.049
X0.961 Y9.938
X0.918 Y9.827
X0.875 Y9.717
X0.832 Y9.607
X0.789 Y9.499
X0.747 Y9.391
X0.709 Y9.296
X0.727 Y9.2
X0.819 Y9.156
X0.905 Y9.206
X0.916 Y9.222
X0.921 Y9.232
X0.926 Y9.243
X0.932 Y9.255
X0.937 Y9.268
X0.943 Y9.284
X0.953 Y9.309
X0.961 Y9.327
X0.968 Y9.347
X0.976 Y9.366
X0.984 Y9.385
X0.992 Y9.405
X1.001 Y9.425
X1.009 Y9.446
X1.017 Y9.466
X1.026 Y9.487
X1.034 Y9.509
X1.043 Y9.53
X1.051 Y9.552
X1.06 Y9.574
X1.069 Y9.596
X1.078 Y9.619
X1.087 Y9.642
X1.096 Y9.665
X1.105 Y9.688
X1.114 Y9.712
X1.124 Y9.736
X1.133 Y9.76
X1.142 Y9.785
X1.152 Y9.81
G2 X1.292 Y9.906 I0.14 J-0.054
G1 X2.63
G2 X2.766 Y9.819 J-0.15
G1 X2.777 Y9.795
X2.789 Y9.77
X2.8 Y9.745
X2.811 Y9.721
X2.822 Y9.697
X2.832 Y9.673
X2.843 Y9.649
X2.853 Y9.626
X2.863 Y9.602
X2.872 Y9.58
X2.882 Y9.557
X2.891 Y9.534
X2.9 Y9.512
X2.908 Y9.49
X2.917 Y9.468
X2.925 Y9.447
X2.933 Y9.425
X2.94 Y9.404
X2.948 Y9.383
X2.955 Y9.363
X2.962 Y9.342
X2.969 Y9.322
X2.975 Y9.302
X2.981 Y9.284
X2.986 Y9.269
X2.991 Y9.256
X2.996 Y9.244
X3.001 Y9.233
X3.006 Y9.223
X3.012 Y9.214
X3.095 Y9.157
X3.187 Y9.187
X3.22 Y9.278
X3.18 Y9.392
X3.139 Y9.5
X3.097 Y9.608
X3.055 Y9.717
X3.012 Y9.827
X2.969 Y9.938
X2.926 Y10.05
X2.883 Y10.162
X2.84 Y10.276
X2.796 Y10.39
X2.752 Y10.504
X2.708 Y10.62
X2.663 Y10.736
X2.618 Y10.854
X2.573 Y10.972
X2.528 Y11.09
X2.482 Y11.21
X2.437 Y11.33
X2.391 Y11.451
X2.344 Y11.573
X2.298 Y11.696
X2.251 Y11.819
X2.204 Y11.944
X2.156 Y12.069
X2.148 Y12.091
X2.14 Y12.11
X2.132 Y12.128
X2.124 Y12.144
X2.116 Y12.159
X2.108 Y12.173
X2.1 Y12.186
X2.092 Y12.197
X2.084 Y12.207
X2.08 Y12.212
G3 X1.996 Y12.194 I-0.037 J-0.032
G1 X1.967 Y12.096
X1.889 Y11.821
G3 X1.956 Y11.73 I0.068 J-0.02
G2 X2.095 Y11.633 I-0.002 J-0.15
G1 X2.599 Y10.285
G2 X2.459 Y10.083 I-0.14 J-0.053
G1 X1.449
G2 X1.309 Y10.285 J0.15
G1 X1.814 Y11.633
G2 X1.956 Y11.73 I0.14 J-0.053
G1 X1.957 Y11.787 Z-0.094 F1000
G0 Z2.3
X4.721 Y9.365
Z1
G1 Z0.5 F1000
G3 X4.991 Y9.457 Z0.421 I0.135 J0.046 F100
X4.721 Y9.365 Z0.342 I-0.135 J-0.046
X4.991 Y9.457 Z0.263 I0.135 J0.046
X4.721 Y9.365 Z0.184 I-0.135 J-0.046
X4.991 Y9.457 Z0.105 I0.135 J0.046
X4.721 Y9.365 Z0.026 I-0.135 J-0.046
X4.991 Y9.457 Z-0.053 I0.135 J0.046
X4.77 Y9.525 Z-0.1 I-0.135 J-0.046
X4.853 Y9.416 I0.041 J-0.055
X4.77 Y9.525 I-0.041 J0.055
X4.663 Y9.431 I0.558 J-0.744
X4.633 Y9.292 I0.096 J-0.094
G1 X4.638 Y9.277
X4.645 Y9.261
X4.651 Y9.245
X4.658 Y9.231
X4.665 Y9.218
X4.672 Y9.206
X4.679 Y9.195
X4.686 Y9.186
X4.693 Y9.177
X4.7 Y9.169
X4.792 Y9.124
X4.802
X4.814 Y9.123
X4.825 Y9.124
X4.835
X4.923 Y9.169
X4.93 Y9.176
X4.937 Y9.185
X4.944 Y9.195
X4.951 Y9.206
X4.958 Y9.218
X4.965 Y9.231
X4.972 Y9.245
X4.978 Y9.26
X4.985 Y9.277
X4.992 Y9.297
X5.04 Y9.432
X5.088 Y9.565
X5.134 Y9.697
X5.18 Y9.827
X5.225 Y9.956
X5.269 Y10.084
X5.313 Y10.211
X5.356 Y10.336
X5.397 Y10.46
X5.439 Y10.582
X5.479 Y10.704
X5.519 Y10.824
X5.558 Y10.942
X5.596 Y11.06
X5.633 Y11.175
X5.669 Y11.29
X5.705 Y11.403
X5.74 Y11.515
X5.774 Y11.626
X5.808 Y11.735
X5.84 Y11.843
X5.872 Y11.95
X5.903 Y12.055
X5.934 Y12.159
X5.913 Y12.251
X5.821 Y12.282
X5.747 Y12.217
X5.744 Y12.207
X5.713 Y12.101
X5.681 Y11.994
X5.65 Y11.887
X5.618 Y11.78
X5.586 Y11.675
X5.554 Y11.57
X5.522 Y11.465
X5.49 Y11.362
X5.457 Y11.259
X5.425 Y11.157
X5.393 Y11.055
X5.361 Y10.954
X5.328 Y10.854
X5.296 Y10.755
X5.263 Y10.656
X5.231 Y10.558
X5.198 Y10.461
X5.166 Y10.364
X5.133 Y10.268
X5.1 Y10.173
X5.068 Y10.078
X5.035 Y9.984
X5.002 Y9.891
X4.969 Y9.798
G2 X4.686 Y9.799 I-0.141 J0.05
G1 X4.656 Y9.885
X4.626 Y9.973
X4.596 Y10.061
X4.566 Y10.151
X4.535 Y10.242
X4.504 Y10.334
X4.474 Y10.428
X4.443 Y10.522
X4.412 Y10.618
X4.381 Y10.715
X4.349 Y10.813
X4.318 Y10.912
X4.286 Y11.012
X4.254 Y11.114
X4.223 Y11.217
X4.19 Y11.321
X4.158 Y11.426
X4.126 Y11.532
X4.093 Y11.64
X4.061 Y11.749
X4.028 Y11.859
X3.995 Y11.97
X3.962 Y12.082
X3.929 Y12.195
X3.925 Y12.21
X3.86 Y12.279
X3.721 Y12.227
X3.746 Y12.02
X3.779 Y11.904
X3.814 Y11.788
X3.848 Y11.672
X3.883 Y11.556
X3.919 Y11.439
X3.955 Y11.322
X3.991 Y11.205
X4.028 Y11.088
X4.065 Y10.97
X4.102 Y10.852
X4.14 Y10.734
X4.179 Y10.615
X4.218 Y10.497
X4.257 Y10.378
X4.297 Y10.259
X4.337 Y10.139
X4.378 Y10.02
X4.419 Y9.9
X4.46 Y9.78
X4.502 Y9.66
X4.545 Y9.539
X4.588 Y9.418
X4.631 Y9.297
X4.633 Y9.292
X4.686 Y9.311 Z-0.094 F1000
G0 Z2.3
X-37.44 Y2.529
Z1
G1 Z0.5 F1000
G3 X-37.176 Y2.635 Z0.421 I0.132 J0.053 F100
X-37.44 Y2.529 Z0.342 I-0.132 J-0.053
X-37.176 Y2.635 Z0.263 I0.132 J0.053
X-37.44 Y2.529 Z0.184 I-0.132 J-0.053
X-37.176 Y2.635 Z0.105 I0.132 J0.053
X-37.44 Y2.529 Z0.026 I-0.132 J-0.053
X-37.176 Y2.635 Z-0.053 I0.132 J0.053
X-37.4 Y2.691 Z-0.1 I-0.132 J-0.053
X-37.3 Y2.573 I0.05 J-0.059
X-37.29 Y2.582 I-0.063 J0.076
G1 X-37.307 Y2.6
G2 X-37.327 Y2.584 I-0.219 J0.264
G1 X-37.344 Y2.572
X-37.332 Y2.552
G3 X-37.31 Y2.566 I-0.178 J0.32
X-37.3 Y2.573 I-0.054 J0.082
G1 X-37.301 F1000
Z0.5
X-38.694 Y2.322 F100
G3 X-38.606 Y2.592 Z0.421 I0.044 J0.135
X-38.694 Y2.322 Z0.342 I-0.044 J-0.135
X-38.606 Y2.592 Z0.263 I0.044 J0.135
X-38.694 Y2.322 Z0.184 I-0.044 J-0.135
X-38.606 Y2.592 Z0.105 I0.044 J0.135
X-38.694 Y2.322 Z0.026 I-0.044 J-0.135
X-38.606 Y2.592 Z-0.053 I0.044 J0.135
X-38.793 Y2.457 Z-0.1 I-0.044 J-0.135
X-38.62 I0.086
X-38.68 I-0.03
X-38.62 I0.03
G1 Z0.5 F1000
X-38.726 Y3.646 F100
G3 X-38.637 Y3.916 Z0.421 I0.044 J0.135
X-38.726 Y3.646 Z0.342 I-0.044 J-0.135
X-38.637 Y3.916 Z0.263 I0.044 J0.135
X-38.726 Y3.646 Z0.184 I-0.044 J-0.135
X-38.637 Y3.916 Z0.105 I0.044 J0.135
X-38.726 Y3.646 Z0.026 I-0.044 J-0.135
X-38.637 Y3.916 Z-0.053 I0.044 J0.135
X-38.824 Y3.781 Z-0.1 I-0.044 J-0.135
X-38.658 I0.083
X-38.705 I-0.024
X-38.658 I0.024
X-38.671 Y3.882 I-0.376
X-38.764 Y3.923 I-0.063 J-0.018
G1 X-38.816 Y3.897
X-38.842 Y0.939
X-38.797 Y0.85
X-38.703 Y0.827
X-38.614 Y0.928
Y2.17
G2 X-38.464 Y2.32 I0.15
G1 X-37.811
X-37.774 Y2.319
X-37.743
X-37.712 Y2.32
X-37.681 Y2.321
X-37.652 Y2.323
X-37.623 Y2.325
X-37.594 Y2.328
X-37.566 Y2.332
X-37.539 Y2.337
X-37.512 Y2.342
X-37.486 Y2.347
X-37.461 Y2.353
X-37.436 Y2.36
X-37.412 Y2.368
X-37.388 Y2.375
X-37.365 Y2.384
X-37.343 Y2.393
X-37.321 Y2.403
X-37.299 Y2.413
X-37.278 Y2.424
X-37.258 Y2.435
X-37.238 Y2.447
X-37.218 Y2.46
X-37.21 Y2.465
X-37.199 Y2.477
X-37.179 Y2.499
X-37.16 Y2.521
X-37.143 Y2.544
X-37.126 Y2.567
X-37.11 Y2.591
X-37.095 Y2.614
X-37.08 Y2.639
X-37.067 Y2.664
X-37.054 Y2.689
X-37.042 Y2.714
X-37.032 Y2.74
X-37.022 Y2.767
X-37.012 Y2.794
X-37.004 Y2.822
X-36.996 Y2.85
X-36.989 Y2.879
X-36.984 Y2.908
X-36.978 Y2.939
X-36.974 Y2.969
X-36.971 Y3
X-36.968 Y3.032
X-36.967 Y3.065
X-36.966 Y3.098
Y3.128
Y3.166
X-36.967 Y3.2
X-36.969 Y3.234
X-36.972 Y3.267
X-36.976 Y3.299
X-36.981 Y3.331
X-36.987 Y3.362
X-36.994 Y3.391
X-37.001 Y3.42
X-37.01 Y3.449
X-37.019 Y3.476
X-37.029 Y3.503
X-37.04 Y3.529
X-37.052 Y3.555
X-37.065 Y3.579
X-37.079 Y3.603
X-37.093 Y3.627
X-37.109 Y3.65
X-37.125 Y3.672
X-37.142 Y3.694
X-37.161 Y3.715
X-37.18 Y3.736
X-37.2 Y3.756
X-37.216 Y3.77
X-37.231 Y3.781
X-37.253 Y3.795
X-37.276 Y3.809
X-37.299 Y3.822
X-37.322 Y3.835
X-37.346 Y3.847
X-37.37 Y3.858
X-37.395 Y3.868
X-37.42 Y3.878
X-37.445 Y3.887
X-37.47 Y3.895
X-37.496 Y3.903
X-37.523 Y3.91
X-37.55 Y3.916
X-37.577 Y3.922
X-37.605 Y3.927
X-37.633 Y3.931
X-37.662 Y3.935
X-37.691 Y3.938
X-37.72 Y3.94
X-37.75 Y3.941
X-37.781 Y3.942
X-37.812
X-37.845
X-38.727 Y3.941
X-38.764 Y3.923
X-38.679 Y3.785
X-38.572 Y3.663
G2 X-38.464 Y3.709 I0.108 J-0.104
G1 X-37.885
G2 X-37.875 J-0.15
G1 X-37.832 Y3.706
X-37.786 Y3.701
X-37.741 Y3.695
X-37.698 Y3.688
X-37.656 Y3.678
X-37.616 Y3.668
X-37.576 Y3.655
X-37.539 Y3.641
X-37.502 Y3.625
X-37.467 Y3.606
